;FLAVOR:Marlin
;TIME:22245
;Filament used: 16.2636m
;Layer height: 0.2
;MINX:19.344
;MINY:43.792
;MINZ:0.2
;MAXX:200.656
;MAXY:177.448
;MAXZ:16.6
;Generated with Cura_SteamEngine 4.11.0
M140 S50
M105
M190 S50
M104 S200
M105
M109 S200
M82 ;absolute extrusion mode
; Ender 3 Custom Start G-code
G92 E0 ; Reset Extruder
G28 ; Home all axes
G1 Z2.0 F3000 ; Move Z Axis up little to prevent scratching of Heat Bed
G1 X0.1 Y20 Z0.3 F5000.0 ; Move to start position
G1 X0.1 Y200.0 Z0.3 F1500.0 E15 ; Draw the first line
G1 X0.4 Y200.0 Z0.3 F5000.0 ; Move to side a little
G1 X0.4 Y20 Z0.3 F1500.0 E30 ; Draw the second line
G92 E0 ; Reset Extruder
G1 Z2.0 F3000 ; Move Z Axis up little to prevent scratching of Heat Bed
G1 X5 Y20 Z0.3 F5000.0 ; Move over to prevent blob squish
G92 E0
G92 E0
G1 F2700 E-5
;LAYER_COUNT:83
;LAYER:0
M107
G0 F6000 X24.766 Y45.326 Z0.2
;TYPE:SKIRT
G1 F2700 E0
G1 F1200 X25.594 Y44.884 E0.03122
G1 X26.456 Y44.515 E0.0624
G1 X27.346 Y44.22 E0.09359
G1 X28.258 Y44.002 E0.12478
G1 X29.186 Y43.863 E0.15599
G1 X30.045 Y43.805 E0.18462
G1 X30.365 Y43.796 E0.19527
G1 X30.674 Y43.792 E0.20555
G1 X187.115 Y43.794 E5.4088
G1 X187.813 Y43.804 E5.43201
G1 X188.671 Y43.85 E5.46059
G1 X188.822 Y43.864 E5.46564
G1 X189.481 Y43.945 E5.48772
G1 X189.825 Y43.998 E5.4993
G1 X190.745 Y44.18 E5.53049
G1 X191.646 Y44.44 E5.56168
G1 X192.184 Y44.637 E5.58074
G1 X192.6 Y44.801 E5.59561
G1 X192.918 Y44.931 E5.60703
G1 X193.766 Y45.333 E5.63825
G1 X194.576 Y45.805 E5.66943
G1 X195.224 Y46.254 E5.69565
G1 X195.549 Y46.497 E5.70915
G1 X195.862 Y46.739 E5.72231
G1 X196.572 Y47.352 E5.7535
G1 X197.227 Y48.024 E5.78472
G1 X197.633 Y48.505 E5.80565
G1 X197.905 Y48.846 E5.82016
G1 X198.458 Y49.603 E5.85134
G1 X198.929 Y50.376 E5.88145
G1 X199.073 Y50.636 E5.89133
G1 X199.67 Y51.897 E5.93774
G1 X199.793 Y52.206 E5.9488
G1 X200.102 Y53.091 E5.97997
G1 X200.335 Y54 E6.01119
G1 X200.455 Y54.667 E6.03373
G1 X200.503 Y54.992 E6.04465
G1 X200.542 Y55.286 E6.05452
G1 X200.567 Y55.494 E6.06149
G1 X200.64 Y56.451 E6.09341
G1 X200.653 Y56.935 E6.10951
G1 X200.656 Y57.239 E6.11962
G1 X200.655 Y163.888 E9.66678
G1 X200.645 Y164.585 E9.68997
G1 X200.6 Y165.429 E9.71808
G1 X200.586 Y165.582 E9.72319
G1 X200.516 Y166.174 E9.74302
G1 X200.463 Y166.536 E9.75518
G1 X200.288 Y167.457 E9.78637
G1 X200.035 Y168.36 E9.81756
G1 X199.833 Y168.924 E9.83748
G1 X199.72 Y169.215 E9.84786
G1 X199.597 Y169.519 E9.85877
G1 X199.52 Y169.701 E9.86534
G1 X199.118 Y170.548 E9.89653
G1 X198.645 Y171.358 E9.92773
G1 X198.243 Y171.942 E9.95131
G1 X197.985 Y172.292 E9.96577
G1 X197.758 Y172.59 E9.97823
G1 X197.151 Y173.305 E10.00942
G1 X196.486 Y173.966 E10.04061
G1 X195.964 Y174.413 E10.06347
G1 X195.659 Y174.658 E10.07648
G1 X194.903 Y175.213 E10.10767
G1 X194.326 Y175.576 E10.13034
G1 X194.068 Y175.727 E10.14029
G1 X193.239 Y176.165 E10.17147
G1 X192.592 Y176.448 E10.19496
G1 X192.274 Y176.575 E10.20635
G1 X191.389 Y176.886 E10.23755
G1 X190.481 Y177.12 E10.26873
G1 X189.84 Y177.236 E10.2904
G1 X189.404 Y177.302 E10.30507
G1 X188.983 Y177.358 E10.31919
G1 X188.018 Y177.432 E10.35138
G1 X187.516 Y177.446 E10.36809
G1 X187.3 Y177.448 E10.37527
G1 X30.893 Y177.447 E15.57739
G1 X30.195 Y177.437 E15.60061
G1 X29.259 Y177.383 E15.63179
G1 X28.331 Y177.251 E15.66297
G1 X27.417 Y177.039 E15.69417
G1 X26.525 Y176.75 E15.72536
G1 X25.66 Y176.387 E15.75656
G1 X24.83 Y175.951 E15.78774
G1 X24.039 Y175.446 E15.81896
G1 X23.295 Y174.875 E15.85015
G1 X22.602 Y174.243 E15.88134
G1 X21.965 Y173.555 E15.91253
G1 X21.39 Y172.814 E15.94373
G1 X20.879 Y172.028 E15.97491
G1 X20.437 Y171.2 E16.00612
G1 X20.068 Y170.338 E16.03731
G1 X19.773 Y169.448 E16.0685
G1 X19.555 Y168.536 E16.09968
G1 X19.415 Y167.608 E16.1309
G1 X19.357 Y166.736 E16.15997
G1 X19.348 Y166.404 E16.17101
G1 X19.344 Y166.106 E16.18092
G1 X19.345 Y55.33 E19.86535
G1 X19.355 Y54.641 E19.88827
G1 X19.409 Y53.705 E19.91945
G1 X19.542 Y52.777 E19.95063
G1 X19.754 Y51.863 E19.98184
G1 X20.042 Y50.971 E20.01302
G1 X20.406 Y50.106 E20.04423
G1 X20.842 Y49.276 E20.07541
G1 X21.347 Y48.486 E20.1066
G1 X21.918 Y47.742 E20.13779
G1 X22.55 Y47.049 E20.16899
G1 X23.239 Y46.412 E20.20019
G1 X23.979 Y45.836 E20.23138
G1 X24.766 Y45.326 E20.26258
G0 F6000 X25.145 Y45.569
G1 F1200 X25.966 Y45.152 E20.2932
G1 X26.82 Y44.808 E20.32382
G1 X27.7 Y44.539 E20.35443
G1 X28.601 Y44.347 E20.38507
G1 X29.514 Y44.234 E20.41567
G1 X30.056 Y44.205 E20.43372
G1 X30.376 Y44.196 E20.44437
G1 X30.674 Y44.192 E20.45428
G1 X187.109 Y44.194 E25.65733
G1 X187.807 Y44.204 E25.68055
G1 X188.634 Y44.248 E25.70809
G1 X188.785 Y44.262 E25.71314
G1 X189.42 Y44.341 E25.73442
G1 X189.764 Y44.394 E25.746
G1 X190.667 Y44.573 E25.77662
G1 X191.551 Y44.83 E25.80723
G1 X192.038 Y45.009 E25.82449
G1 X192.454 Y45.173 E25.83936
G1 X192.763 Y45.3 E25.85048
G1 X193.594 Y45.695 E25.88108
G1 X194.389 Y46.16 E25.91171
G1 X194.984 Y46.575 E25.93584
G1 X195.309 Y46.818 E25.94934
G1 X195.613 Y47.053 E25.96212
G1 X196.31 Y47.655 E25.99275
G1 X196.951 Y48.316 E26.02337
G1 X197.321 Y48.754 E26.04244
G1 X197.593 Y49.095 E26.05695
G1 X198.135 Y49.839 E26.08757
G1 X198.579 Y50.569 E26.11598
G1 X198.723 Y50.829 E26.12587
G1 X199.298 Y52.045 E26.17061
G1 X199.421 Y52.354 E26.18167
G1 X199.724 Y53.223 E26.21228
G1 X199.951 Y54.115 E26.24289
G1 X200.059 Y54.725 E26.2635
G1 X200.107 Y55.05 E26.27442
G1 X200.145 Y55.334 E26.28395
G1 X200.17 Y55.542 E26.29092
G1 X200.24 Y56.464 E26.32168
G1 X200.253 Y56.939 E26.33748
G1 X200.256 Y57.239 E26.34746
G1 X200.255 Y163.882 E29.89442
G1 X200.245 Y164.579 E29.9176
G1 X200.202 Y165.393 E29.94472
G1 X200.188 Y165.546 E29.94983
G1 X200.12 Y166.116 E29.96892
G1 X200.067 Y166.478 E29.98109
G1 X199.894 Y167.382 E30.0117
G1 X199.644 Y168.268 E30.04232
G1 X199.46 Y168.779 E30.06038
G1 X199.347 Y169.07 E30.07077
G1 X199.228 Y169.363 E30.08128
G1 X199.151 Y169.545 E30.08786
G1 X198.756 Y170.377 E30.11849
G1 X198.29 Y171.171 E30.14911
G1 X197.921 Y171.705 E30.1707
G1 X197.663 Y172.055 E30.18516
G1 X197.442 Y172.345 E30.19729
G1 X196.846 Y173.046 E30.22789
G1 X196.191 Y173.693 E30.25851
G1 X195.713 Y174.101 E30.27942
G1 X195.408 Y174.346 E30.29243
G1 X194.666 Y174.891 E30.32305
G1 X194.124 Y175.23 E30.34431
G1 X193.866 Y175.381 E30.35425
G1 X193.052 Y175.811 E30.38487
G1 X192.443 Y176.077 E30.40698
G1 X192.125 Y176.204 E30.41837
G1 X191.256 Y176.508 E30.44899
G1 X190.364 Y176.735 E30.4796
G1 X189.781 Y176.841 E30.49931
G1 X189.345 Y176.907 E30.51397
G1 X188.935 Y176.961 E30.52773
G1 X188.005 Y177.032 E30.55875
G1 X187.512 Y177.046 E30.57515
G1 X187.296 Y177.048 E30.58234
G1 X30.899 Y177.047 E35.78412
G1 X30.201 Y177.037 E35.80734
G1 X29.282 Y176.984 E35.83796
G1 X28.371 Y176.851 E35.86858
G1 X27.475 Y176.64 E35.8992
G1 X26.601 Y176.352 E35.9298
G1 X25.754 Y175.989 E35.96045
G1 X24.943 Y175.554 E35.99106
G1 X24.173 Y175.05 E36.02167
G1 X23.449 Y174.481 E36.0523
G1 X22.777 Y173.851 E36.08294
G1 X22.162 Y173.166 E36.11355
G1 X21.609 Y172.43 E36.14417
G1 X21.122 Y171.649 E36.17479
G1 X20.705 Y170.828 E36.20541
G1 X20.36 Y169.974 E36.23605
G1 X20.091 Y169.094 E36.26665
G1 X19.899 Y168.193 E36.29729
G1 X19.786 Y167.28 E36.32789
G1 X19.757 Y166.725 E36.34638
G1 X19.748 Y166.393 E36.35742
G1 X19.744 Y166.106 E36.36697
G1 X19.745 Y55.336 E40.05119
G1 X19.755 Y54.647 E40.07411
G1 X19.808 Y53.728 E40.10473
G1 X19.941 Y52.817 E40.13535
G1 X20.153 Y51.921 E40.16597
G1 X20.441 Y51.047 E40.19658
G1 X20.804 Y50.201 E40.2272
G1 X21.239 Y49.389 E40.25784
G1 X21.743 Y48.619 E40.28845
G1 X22.312 Y47.895 E40.31907
G1 X22.942 Y47.223 E40.34971
G1 X23.627 Y46.609 E40.38031
G1 X24.364 Y46.056 E40.41095
G1 X25.145 Y45.569 E40.44157
G0 F6000 X25.523 Y45.818
G1 F1200 X26.336 Y45.426 E40.47159
G1 X27.181 Y45.107 E40.50163
G1 X28.051 Y44.864 E40.53167
G1 X28.939 Y44.7 E40.5617
G1 X30.067 Y44.605 E40.59936
G1 X30.387 Y44.596 E40.61
G1 X30.674 Y44.592 E40.61955
G1 X187.103 Y44.594 E45.8224
G1 X187.801 Y44.604 E45.84562
G1 X188.597 Y44.647 E45.87213
G1 X188.748 Y44.661 E45.87717
G1 X189.359 Y44.736 E45.89765
G1 X189.703 Y44.789 E45.90923
G1 X190.589 Y44.966 E45.93928
G1 X191.455 Y45.22 E45.96929
G1 X191.891 Y45.381 E45.98475
G1 X192.307 Y45.545 E45.99962
G1 X192.607 Y45.668 E46.01041
G1 X193.423 Y46.056 E46.04046
G1 X194.201 Y46.515 E46.0705
G1 X194.745 Y46.895 E46.09257
G1 X195.07 Y47.138 E46.10607
G1 X195.365 Y47.367 E46.11849
G1 X196.048 Y47.958 E46.14853
G1 X196.675 Y48.608 E46.17857
G1 X197.008 Y49.004 E46.19578
G1 X197.28 Y49.345 E46.21029
G1 X197.811 Y50.075 E46.24031
G1 X198.229 Y50.763 E46.26709
G1 X198.373 Y51.023 E46.27697
G1 X198.927 Y52.193 E46.32003
G1 X199.05 Y52.502 E46.33109
G1 X199.346 Y53.355 E46.36112
G1 X199.566 Y54.231 E46.39116
G1 X199.664 Y54.784 E46.40984
G1 X199.712 Y55.109 E46.42077
G1 X199.773 Y55.59 E46.43689
G1 X199.841 Y56.477 E46.46648
G1 X199.853 Y56.944 E46.48202
G1 X199.856 Y57.239 E46.49183
G1 X199.855 Y163.876 E50.03859
G1 X199.845 Y164.573 E50.06178
G1 X199.804 Y165.356 E50.08786
G1 X199.79 Y165.509 E50.09297
G1 X199.724 Y166.058 E50.11136
G1 X199.671 Y166.42 E50.12353
G1 X199.501 Y167.307 E50.15357
G1 X199.253 Y168.175 E50.18359
G1 X199.087 Y168.634 E50.19982
G1 X198.974 Y168.925 E50.21021
G1 X198.86 Y169.207 E50.22032
G1 X198.783 Y169.389 E50.2269
G1 X198.395 Y170.205 E50.25695
G1 X197.936 Y170.982 E50.28696
G1 X197.599 Y171.467 E50.30661
G1 X197.341 Y171.817 E50.32107
G1 X197.126 Y172.099 E50.33286
G1 X196.541 Y172.787 E50.3629
G1 X195.897 Y173.42 E50.39293
G1 X195.463 Y173.789 E50.41188
G1 X195.158 Y174.034 E50.42489
G1 X194.429 Y174.568 E50.45495
G1 X193.922 Y174.885 E50.47484
G1 X193.664 Y175.036 E50.48478
G1 X192.865 Y175.457 E50.51482
G1 X192.295 Y175.706 E50.53551
G1 X191.977 Y175.833 E50.5469
G1 X191.124 Y176.13 E50.57694
G1 X190.249 Y176.351 E50.60695
G1 X189.721 Y176.445 E50.62479
G1 X189.285 Y176.511 E50.63946
G1 X188.886 Y176.564 E50.65284
G1 X187.992 Y176.633 E50.68267
G1 X187.508 Y176.646 E50.69877
G1 X187.292 Y176.648 E50.70596
G1 X30.905 Y176.647 E55.90741
G1 X30.207 Y176.637 E55.93063
G1 X29.305 Y176.584 E55.96068
G1 X28.412 Y176.452 E55.9907
G1 X27.534 Y176.241 E56.02074
G1 X26.678 Y175.953 E56.05078
G1 X25.851 Y175.591 E56.0808
G1 X25.059 Y175.156 E56.11086
G1 X24.308 Y174.654 E56.1409
G1 X23.605 Y174.087 E56.17094
G1 X22.955 Y173.46 E56.20098
G1 X22.363 Y172.778 E56.23101
G1 X21.833 Y172.047 E56.26105
G1 X21.371 Y171.271 E56.29108
G1 X20.978 Y170.458 E56.32112
G1 X20.66 Y169.613 E56.35115
G1 X20.417 Y168.743 E56.38119
G1 X20.252 Y167.855 E56.41123
G1 X20.157 Y166.714 E56.44931
G1 X20.148 Y166.382 E56.46036
G1 X20.144 Y166.106 E56.46954
G1 X20.145 Y55.342 E60.15357
G1 X20.155 Y54.653 E60.17648
G1 X20.208 Y53.751 E60.20654
G1 X20.341 Y52.858 E60.23657
G1 X20.552 Y51.98 E60.2666
G1 X20.84 Y51.124 E60.29664
G1 X21.202 Y50.297 E60.32666
G1 X21.637 Y49.505 E60.35672
G1 X22.139 Y48.755 E60.38673
G1 X22.706 Y48.052 E60.41677
G1 X23.333 Y47.402 E60.44681
G1 X24.015 Y46.81 E60.47685
G1 X24.747 Y46.28 E60.50691
G1 X25.523 Y45.818 E60.53695
G1 F2700 E55.53695
;MESH:Body7.stl
G0 F6000 X30.764 Y54.127
G0 X30.764 Y55.212
G0 X30.944 Y165.848
;TYPE:WALL-INNER
G1 F2700 E60.53695
G1 F1200 X30.944 Y55.591 E64.20411
G1 X30.944 Y55.392 E64.21073
G1 X31.143 Y55.392 E64.21501
G1 X187.628 Y55.393 E69.41972
G1 X188.011 Y55.445 E69.43258
G1 X188.358 Y55.59 E69.44509
G1 X188.638 Y55.805 E69.45683
G1 X188.865 Y56.105 E69.46934
G1 X189.003 Y56.439 E69.48136
G1 X189.056 Y56.843 E69.49491
G1 X189.056 Y164.397 E73.07217
G1 X189.003 Y164.802 E73.08576
G1 X188.862 Y165.143 E73.09803
G1 X188.642 Y165.432 E73.11011
G1 X188.357 Y165.653 E73.12211
G1 X188.013 Y165.796 E73.1345
G1 X187.622 Y165.848 E73.14762
G1 X30.944 Y165.848 E78.35875
G0 F6000 X30.544 Y166.248
;TYPE:WALL-OUTER
G1 F1200 X30.544 Y54.992 E82.05914
G1 X187.651 Y54.993 E87.28454
G1 X188.118 Y55.056 E87.30021
G1 X188.561 Y55.241 E87.31618
G1 X188.926 Y55.522 E87.3315
G1 X189.215 Y55.903 E87.3474
G1 X189.393 Y56.336 E87.36297
G1 X189.456 Y56.814 E87.37901
G1 X189.456 Y164.426 E90.9582
G1 X189.393 Y164.904 E90.97424
G1 X189.213 Y165.342 E90.98999
G1 X188.928 Y165.716 E91.00563
G1 X188.561 Y166.001 E91.02108
G1 X188.118 Y166.185 E91.03703
G1 X187.645 Y166.248 E91.05291
G1 X30.544 Y166.248 E96.27811
G0 F6000 X30.814 Y165.978
G0 X31.054 Y165.458
G0 X31.334 Y165.458
;TYPE:SKIN
G1 F1200 X31.334 Y55.782 E99.92594
G1 X187.606 Y55.783 E105.12357
G1 X187.906 Y55.824 E105.13364
G1 X188.158 Y55.929 E105.14272
G1 X188.362 Y56.086 E105.15128
G1 X188.522 Y56.297 E105.16009
G1 X188.625 Y56.545 E105.16902
G1 X188.666 Y56.863 E105.17969
G1 X188.666 Y164.377 E108.75562
G1 X188.624 Y164.699 E108.76642
G1 X188.522 Y164.947 E108.77534
G1 X188.364 Y165.155 E108.78403
G1 X188.16 Y165.313 E108.79261
G1 X187.908 Y165.417 E108.80167
G1 X187.601 Y165.458 E108.81198
G1 X31.334 Y165.458 E114.00944
G0 F6000 X31.795 Y165.296
G1 F1200 X31.493 Y164.995 E114.02362
G0 F6000 X31.493 Y164.429
G1 F1200 X32.36 Y165.296 E114.0644
G0 F6000 X32.926 Y165.296
G1 F1200 X31.493 Y163.864 E114.13178
G0 F6000 X31.493 Y163.298
G1 F1200 X33.492 Y165.296 E114.22578
G0 F6000 X34.057 Y165.296
G1 F1200 X31.493 Y162.732 E114.34639
G0 F6000 X31.493 Y162.167
G1 F1200 X34.623 Y165.296 E114.49359
G0 F6000 X35.189 Y165.296
G1 F1200 X31.493 Y161.601 E114.66741
G0 F6000 X31.493 Y161.035
G1 F1200 X35.754 Y165.296 E114.86784
G0 F6000 X36.32 Y165.296
G1 F1200 X31.493 Y160.47 E115.09486
G0 F6000 X31.493 Y159.904
G1 F1200 X36.886 Y165.296 E115.34851
G0 F6000 X37.451 Y165.296
G1 F1200 X31.493 Y159.338 E115.62876
G0 F6000 X31.493 Y158.773
G1 F1200 X38.017 Y165.296 E115.9356
G0 F6000 X38.583 Y165.296
G1 F1200 X31.493 Y158.207 E116.26907
G0 F6000 X31.493 Y157.641
G1 F1200 X39.148 Y165.296 E116.62914
G0 F6000 X39.714 Y165.296
G1 F1200 X31.493 Y157.075 E117.01583
G0 F6000 X31.493 Y156.51
G1 F1200 X40.28 Y165.296 E117.42912
G0 F6000 X40.846 Y165.296
G1 F1200 X31.493 Y155.944 E117.86903
G0 F6000 X31.493 Y155.378
G1 F1200 X41.411 Y165.296 E118.33554
G0 F6000 X41.977 Y165.296
G1 F1200 X31.493 Y154.813 E118.82865
G0 F6000 X31.493 Y154.247
G1 F1200 X42.543 Y165.296 E119.34839
G0 F6000 X43.108 Y165.296
G1 F1200 X31.493 Y153.681 E119.89472
G0 F6000 X31.493 Y153.116
G1 F1200 X43.674 Y165.296 E120.46766
G0 F6000 X44.24 Y165.296
G1 F1200 X31.493 Y152.55 E121.06721
G0 F6000 X31.493 Y151.984
G1 F1200 X44.805 Y165.296 E121.69337
G0 F6000 X45.371 Y165.296
G1 F1200 X31.493 Y151.419 E122.34612
G0 F6000 X31.493 Y150.853
G1 F1200 X45.937 Y165.296 E123.0255
G0 F6000 X46.502 Y165.296
G1 F1200 X31.493 Y150.287 E123.73148
G0 F6000 X31.493 Y149.722
G1 F1200 X47.068 Y165.296 E124.46406
G0 F6000 X47.634 Y165.296
G1 F1200 X31.493 Y149.156 E125.22325
G0 F6000 X31.493 Y148.59
G1 F1200 X48.199 Y165.296 E126.00905
G0 F6000 X48.765 Y165.296
G1 F1200 X31.493 Y148.025 E126.82145
G0 F6000 X31.493 Y147.459
G1 F1200 X49.331 Y165.296 E127.66047
G0 F6000 X49.896 Y165.296
G1 F1200 X31.493 Y146.893 E128.52609
G0 F6000 X31.493 Y146.327
G1 F1200 X50.462 Y165.296 E129.41834
G0 F6000 X51.028 Y165.296
G1 F1200 X31.493 Y145.762 E130.33718
G0 F6000 X31.493 Y145.196
G1 F1200 X51.594 Y165.296 E131.28265
G0 F6000 X52.159 Y165.296
G1 F1200 X31.493 Y144.63 E132.25471
G0 F6000 X31.493 Y144.065
G1 F1200 X52.725 Y165.296 E133.25338
G0 F6000 X53.291 Y165.296
G1 F1200 X31.493 Y143.499 E134.27866
G0 F6000 X31.493 Y142.933
G1 F1200 X53.856 Y165.296 E135.33055
G0 F6000 X54.422 Y165.296
G1 F1200 X31.493 Y142.368 E136.40904
G0 F6000 X31.493 Y141.802
G1 F1200 X54.988 Y165.296 E137.51415
G0 F6000 X55.553 Y165.296
G1 F1200 X31.493 Y141.236 E138.64586
G0 F6000 X31.493 Y140.671
G1 F1200 X56.119 Y165.296 E139.80416
G0 F6000 X56.685 Y165.296
G1 F1200 X31.493 Y140.105 E140.98909
G0 F6000 X31.493 Y139.539
G1 F1200 X57.25 Y165.296 E142.20062
G0 F6000 X57.816 Y165.296
G1 F1200 X31.493 Y138.974 E143.43875
G0 F6000 X31.493 Y138.408
G1 F1200 X58.382 Y165.296 E144.70351
G0 F6000 X58.947 Y165.296
G1 F1200 X31.493 Y137.842 E145.99486
G0 F6000 X31.493 Y137.277
G1 F1200 X59.513 Y165.296 E147.31281
G0 F6000 X60.079 Y165.296
G1 F1200 X31.493 Y136.711 E148.65738
G0 F6000 X31.493 Y136.145
G1 F1200 X60.645 Y165.296 E150.02858
G0 F6000 X61.21 Y165.296
