;FLAVOR:Marlin
;TIME:22348
;Filament used: 16.5311m
;Layer height: 0.2
;MINX:17.533
;MINY:42.552
;MINZ:0.2
;MAXX:202.467
;MAXY:176.208
;MAXZ:16.6
;Generated with Cura_SteamEngine 4.11.0
M140 S50
M105
M190 S50
M104 S200
M105
M109 S200
M82 ;absolute extrusion mode
; Ender 3 Custom Start G-code
G92 E0 ; Reset Extruder
G28 ; Home all axes
G1 Z2.0 F3000 ; Move Z Axis up little to prevent scratching of Heat Bed
G1 X0.1 Y20 Z0.3 F5000.0 ; Move to start position
G1 X0.1 Y200.0 Z0.3 F1500.0 E15 ; Draw the first line
G1 X0.4 Y200.0 Z0.3 F5000.0 ; Move to side a little
G1 X0.4 Y20 Z0.3 F1500.0 E30 ; Draw the second line
G92 E0 ; Reset Extruder
G1 Z2.0 F3000 ; Move Z Axis up little to prevent scratching of Heat Bed
G1 X5 Y20 Z0.3 F5000.0 ; Move over to prevent blob squish
G92 E0
G92 E0
G1 F2700 E-5
;LAYER_COUNT:83
;LAYER:0
M107
G0 F6000 X23.783 Y43.644 Z0.2
;TYPE:SKIRT
G1 F2700 E0
G1 F1200 X24.645 Y43.275 E0.03119
G1 X25.535 Y42.98 E0.06237
G1 X26.447 Y42.762 E0.09356
G1 X27.375 Y42.623 E0.12477
G1 X28.234 Y42.565 E0.1534
G1 X28.554 Y42.556 E0.16405
G1 X28.863 Y42.552 E0.17433
G1 X188.76 Y42.552 E5.49253
G1 X189.616 Y42.563 E5.521
G1 X190.478 Y42.609 E5.54971
G1 X190.639 Y42.624 E5.55509
G1 X191.207 Y42.692 E5.57412
G1 X191.536 Y42.74 E5.58517
G1 X192.457 Y42.915 E5.61635
G1 X193.361 Y43.168 E5.64758
G1 X194.001 Y43.399 E5.67021
G1 X194.498 Y43.596 E5.68799
G1 X195.355 Y43.978 E5.7192
G1 X196.175 Y44.432 E5.75037
G1 X197.005 Y44.992 E5.78367
G1 X197.324 Y45.229 E5.79689
G1 X197.701 Y45.522 E5.81277
G1 X198.409 Y46.137 E5.84396
G1 X199.062 Y46.811 E5.87518
G1 X199.479 Y47.309 E5.89678
G1 X199.819 Y47.74 E5.91504
G1 X200.368 Y48.501 E5.94625
G1 X200.85 Y49.305 E5.97743
G1 X201.284 Y50.197 E6.01042
G1 X201.419 Y50.51 E6.02176
G1 X201.54 Y50.803 E6.0323
G1 X201.602 Y50.959 E6.03788
G1 X201.911 Y51.845 E6.06909
G1 X202.144 Y52.753 E6.10027
G1 X202.256 Y53.376 E6.12132
G1 X202.317 Y53.779 E6.13488
G1 X202.38 Y54.266 E6.15121
G1 X202.396 Y54.417 E6.15626
G1 X202.452 Y55.228 E6.1833
G1 X202.46 Y55.481 E6.19172
G1 X202.467 Y56.028 E6.20992
G1 X202.465 Y162.656 E9.75638
G1 X202.455 Y163.354 E9.7796
G1 X202.412 Y164.178 E9.80704
G1 X202.399 Y164.323 E9.81188
G1 X202.327 Y164.936 E9.83241
G1 X202.276 Y165.284 E9.84411
G1 X202.1 Y166.205 E9.8753
G1 X201.847 Y167.108 E9.90649
G1 X201.623 Y167.728 E9.92841
G1 X201.456 Y168.151 E9.94354
G1 X201.318 Y168.487 E9.95562
G1 X200.916 Y169.334 E9.9868
G1 X200.443 Y170.144 E10.018
G1 X200.012 Y170.766 E10.04317
G1 X199.7 Y171.181 E10.06044
G1 X199.577 Y171.339 E10.0671
G1 X198.97 Y172.054 E10.09829
G1 X198.304 Y172.714 E10.12948
G1 X197.72 Y173.21 E10.15496
G1 X197.285 Y173.554 E10.17341
G1 X196.525 Y174.104 E10.20461
G1 X195.722 Y174.587 E10.23578
G1 X194.842 Y175.017 E10.26835
G1 X194.554 Y175.142 E10.2788
G1 X194.27 Y175.26 E10.28902
G1 X194.098 Y175.329 E10.29519
G1 X193.213 Y175.641 E10.3264
G1 X192.305 Y175.876 E10.35759
G1 X191.675 Y175.992 E10.3789
G1 X191.285 Y176.052 E10.39202
G1 X190.558 Y176.139 E10.41638
G1 X190.28 Y176.163 E10.42566
G1 X189.438 Y176.204 E10.4537
G1 X189.013 Y176.208 E10.46783
G1 X29.081 Y176.207 E15.78719
G1 X28.384 Y176.197 E15.81038
G1 X27.448 Y176.143 E15.84156
G1 X26.519 Y176.01 E15.87277
G1 X25.606 Y175.799 E15.90394
G1 X24.713 Y175.51 E15.93516
G1 X23.849 Y175.147 E15.96633
G1 X23.019 Y174.711 E15.99751
G1 X22.228 Y174.206 E16.02873
G1 X21.484 Y173.635 E16.05992
G1 X20.791 Y173.003 E16.09111
G1 X20.154 Y172.314 E16.12232
G1 X19.578 Y171.574 E16.15351
G1 X19.068 Y170.787 E16.1847
G1 X18.626 Y169.96 E16.21589
G1 X18.257 Y169.098 E16.24708
G1 X17.962 Y168.208 E16.27826
G1 X17.744 Y167.296 E16.30945
G1 X17.604 Y166.368 E16.34067
G1 X17.546 Y165.496 E16.36973
G1 X17.537 Y165.164 E16.38078
G1 X17.533 Y164.866 E16.39069
G1 X17.534 Y54.09 E20.07512
G1 X17.544 Y53.401 E20.09804
G1 X17.598 Y52.465 E20.12922
G1 X17.731 Y51.537 E20.1604
G1 X17.943 Y50.623 E20.19161
G1 X18.231 Y49.731 E20.22278
G1 X18.595 Y48.866 E20.254
G1 X19.031 Y48.036 E20.28518
G1 X19.536 Y47.246 E20.31636
G1 X20.107 Y46.502 E20.34756
G1 X20.739 Y45.809 E20.37875
G1 X21.428 Y45.172 E20.40996
G1 X22.168 Y44.596 E20.44115
G1 X22.955 Y44.086 E20.47234
G1 X23.783 Y43.644 E20.50356
G0 F6000 X24.155 Y43.912
G1 F1200 X25.009 Y43.568 E20.53418
G1 X25.889 Y43.299 E20.56479
G1 X26.79 Y43.107 E20.59543
G1 X27.703 Y42.994 E20.62603
G1 X28.245 Y42.965 E20.64408
G1 X28.565 Y42.956 E20.65473
G1 X28.863 Y42.952 E20.66464
G1 X188.76 Y42.952 E25.98284
G1 X189.61 Y42.963 E26.01111
G1 X190.441 Y43.008 E26.03879
G1 X190.602 Y43.023 E26.04417
G1 X191.149 Y43.088 E26.06249
G1 X191.478 Y43.136 E26.07355
G1 X192.383 Y43.308 E26.10419
G1 X193.269 Y43.559 E26.13481
G1 X193.854 Y43.771 E26.15551
G1 X194.351 Y43.968 E26.17329
G1 X195.191 Y44.344 E26.2039
G1 X195.996 Y44.792 E26.23454
G1 X196.767 Y45.313 E26.26549
G1 X197.086 Y45.55 E26.27871
G1 X197.452 Y45.835 E26.29414
G1 X198.146 Y46.439 E26.32474
G1 X198.785 Y47.102 E26.35536
G1 X199.165 Y47.557 E26.37508
G1 X199.505 Y47.988 E26.39334
G1 X200.044 Y48.735 E26.42398
G1 X200.515 Y49.526 E26.4546
G1 X200.916 Y50.355 E26.48523
G1 X201.051 Y50.668 E26.49656
G1 X201.169 Y50.951 E26.50676
G1 X201.231 Y51.107 E26.51235
G1 X201.533 Y51.977 E26.54298
G1 X201.759 Y52.869 E26.57358
G1 X201.861 Y53.436 E26.59274
G1 X201.922 Y53.839 E26.6063
G1 X201.982 Y54.308 E26.62202
G1 X201.998 Y54.459 E26.62707
G1 X202.052 Y55.241 E26.65315
G1 X202.06 Y55.494 E26.66157
G1 X202.067 Y56.028 E26.67933
G1 X202.065 Y162.65 E30.22559
G1 X202.055 Y163.348 E30.24881
G1 X202.014 Y164.143 E30.27528
G1 X202.001 Y164.288 E30.28013
G1 X201.931 Y164.878 E30.29989
G1 X201.88 Y165.226 E30.31159
G1 X201.707 Y166.13 E30.3422
G1 X201.456 Y167.016 E30.37283
G1 X201.251 Y167.581 E30.39282
G1 X201.084 Y168.004 E30.40794
G1 X200.95 Y168.331 E30.4197
G1 X200.554 Y169.162 E30.45031
G1 X200.088 Y169.956 E30.48094
G1 X199.691 Y170.527 E30.50407
G1 X199.522 Y170.754 E30.51348
G1 X199.261 Y171.093 E30.52771
G1 X198.665 Y171.795 E30.55834
G1 X198.01 Y172.441 E30.58894
G1 X197.472 Y172.896 E30.61237
G1 X197.037 Y173.24 E30.63082
G1 X196.291 Y173.78 E30.66145
G1 X195.501 Y174.252 E30.69205
G1 X194.682 Y174.65 E30.72234
G1 X194.394 Y174.775 E30.73278
G1 X194.121 Y174.889 E30.74262
G1 X193.949 Y174.958 E30.74879
G1 X193.08 Y175.263 E30.77942
G1 X192.188 Y175.492 E30.81005
G1 X191.614 Y175.597 E30.82946
G1 X191.224 Y175.657 E30.84258
G1 X190.524 Y175.741 E30.86603
G1 X190.246 Y175.765 E30.87531
G1 X189.434 Y175.804 E30.90235
G1 X189.009 Y175.808 E30.91648
G1 X29.087 Y175.807 E36.23551
G1 X28.39 Y175.797 E36.2587
G1 X27.471 Y175.744 E36.28931
G1 X26.56 Y175.611 E36.31994
G1 X25.664 Y175.4 E36.35055
G1 X24.789 Y175.112 E36.38119
G1 X23.943 Y174.748 E36.41182
G1 X23.132 Y174.313 E36.44243
G1 X22.361 Y173.81 E36.47305
G1 X21.637 Y173.241 E36.50368
G1 X20.966 Y172.611 E36.53429
G1 X20.351 Y171.926 E36.56491
G1 X19.798 Y171.19 E36.59553
G1 X19.311 Y170.408 E36.62617
G1 X18.894 Y169.588 E36.65676
G1 X18.549 Y168.734 E36.6874
G1 X18.28 Y167.854 E36.71801
G1 X18.088 Y166.953 E36.74865
G1 X17.975 Y166.039 E36.77928
G1 X17.946 Y165.485 E36.79773
G1 X17.937 Y165.153 E36.80877
G1 X17.933 Y164.866 E36.81832
G1 X17.934 Y54.096 E40.50255
G1 X17.944 Y53.407 E40.52546
G1 X17.997 Y52.488 E40.55608
G1 X18.13 Y51.577 E40.5867
G1 X18.342 Y50.681 E40.61733
G1 X18.63 Y49.807 E40.64793
G1 X18.993 Y48.961 E40.67855
G1 X19.428 Y48.149 E40.70919
G1 X19.932 Y47.379 E40.7398
G1 X20.501 Y46.655 E40.77043
G1 X21.131 Y45.983 E40.80106
G1 X21.816 Y45.369 E40.83166
G1 X22.553 Y44.816 E40.86231
G1 X23.334 Y44.329 E40.89292
G1 X24.155 Y43.912 E40.92355
G0 F6000 X24.525 Y44.186
G1 F1200 X25.37 Y43.867 E40.95359
G1 X26.24 Y43.624 E40.98363
G1 X27.128 Y43.46 E41.01366
G1 X28.256 Y43.365 E41.05131
G1 X28.576 Y43.356 E41.06196
G1 X28.863 Y43.352 E41.07151
G1 X188.76 Y43.352 E46.3897
G1 X189.604 Y43.363 E46.41778
G1 X190.404 Y43.406 E46.44442
G1 X190.565 Y43.421 E46.4498
G1 X191.092 Y43.484 E46.46746
G1 X191.421 Y43.532 E46.47851
G1 X192.308 Y43.702 E46.50855
G1 X193.176 Y43.949 E46.53857
G1 X193.707 Y44.143 E46.55737
G1 X194.204 Y44.34 E46.57515
G1 X195.028 Y44.709 E46.60518
G1 X195.816 Y45.15 E46.63522
G1 X196.528 Y45.634 E46.66385
G1 X196.847 Y45.871 E46.67707
G1 X197.203 Y46.147 E46.69205
G1 X197.883 Y46.741 E46.72208
G1 X198.508 Y47.393 E46.75212
G1 X198.851 Y47.805 E46.76995
G1 X199.191 Y48.236 E46.78821
G1 X199.719 Y48.969 E46.81826
G1 X200.179 Y49.746 E46.84829
G1 X200.549 Y50.513 E46.87661
G1 X200.684 Y50.826 E46.88795
G1 X200.797 Y51.099 E46.89778
G1 X200.859 Y51.255 E46.90336
G1 X201.155 Y52.108 E46.93339
G1 X201.374 Y52.984 E46.96342
G1 X201.465 Y53.495 E46.98069
G1 X201.526 Y53.898 E46.99424
G1 X201.584 Y54.35 E47.0094
G1 X201.6 Y54.501 E47.01445
G1 X201.652 Y55.254 E47.03956
G1 X201.66 Y55.507 E47.04797
G1 X201.667 Y56.028 E47.0653
G1 X201.665 Y162.644 E50.61137
G1 X201.655 Y163.342 E50.63459
G1 X201.615 Y164.107 E50.66006
G1 X201.602 Y164.252 E50.66491
G1 X201.535 Y164.82 E50.68393
G1 X201.484 Y165.168 E50.69563
G1 X201.314 Y166.055 E50.72567
G1 X201.066 Y166.923 E50.75569
G1 X200.879 Y167.435 E50.77382
G1 X200.712 Y167.858 E50.78895
G1 X200.581 Y168.175 E50.80035
G1 X200.193 Y168.99 E50.83038
G1 X199.733 Y169.768 E50.86044
G1 X199.371 Y170.288 E50.88151
G1 X199.069 Y170.69 E50.89823
G1 X198.946 Y170.848 E50.90489
G1 X198.36 Y171.535 E50.93493
G1 X197.716 Y172.168 E50.96496
G1 X197.224 Y172.583 E50.98637
G1 X196.789 Y172.927 E51.00481
G1 X196.056 Y173.455 E51.03486
G1 X195.28 Y173.916 E51.06488
G1 X194.523 Y174.283 E51.09286
G1 X194.235 Y174.408 E51.1033
G1 X193.972 Y174.518 E51.11279
G1 X193.8 Y174.587 E51.11895
G1 X192.947 Y174.885 E51.149
G1 X192.072 Y175.108 E51.17904
G1 X191.553 Y175.201 E51.19657
G1 X191.163 Y175.261 E51.2097
G1 X190.489 Y175.342 E51.23227
G1 X190.211 Y175.366 E51.24156
G1 X189.43 Y175.404 E51.26756
G1 X189.005 Y175.408 E51.2817
G1 X29.093 Y175.407 E56.60039
G1 X28.396 Y175.397 E56.62358
G1 X27.494 Y175.344 E56.65363
G1 X26.601 Y175.212 E56.68365
G1 X25.723 Y175.001 E56.71369
G1 X24.867 Y174.713 E56.74373
G1 X24.039 Y174.35 E56.7738
G1 X23.248 Y173.916 E56.80381
G1 X22.497 Y173.414 E56.83385
G1 X21.794 Y172.847 E56.86389
G1 X21.144 Y172.22 E56.89393
G1 X20.552 Y171.538 E56.92396
G1 X20.022 Y170.807 E56.954
G1 X19.56 Y170.031 E56.98403
G1 X19.167 Y169.218 E57.01407
G1 X18.849 Y168.373 E57.0441
G1 X18.606 Y167.503 E57.07414
G1 X18.441 Y166.615 E57.10418
G1 X18.346 Y165.474 E57.14226
G1 X18.337 Y165.142 E57.15331
G1 X18.333 Y164.866 E57.16249
G1 X18.334 Y54.102 E60.84652
G1 X18.344 Y53.413 E60.86943
G1 X18.397 Y52.511 E60.89949
G1 X18.53 Y51.618 E60.92952
G1 X18.741 Y50.74 E60.95955
G1 X19.029 Y49.884 E60.98959
G1 X19.391 Y49.057 E61.01961
G1 X19.826 Y48.265 E61.04967
G1 X20.328 Y47.515 E61.07968
G1 X20.895 Y46.812 E61.10972
G1 X21.522 Y46.162 E61.13976
G1 X22.204 Y45.57 E61.1698
G1 X22.936 Y45.04 E61.19986
G1 X23.712 Y44.578 E61.2299
G1 X24.525 Y44.186 E61.25991
G1 F2700 E56.25991
;MESH:Body6.stl
G0 F6000 X28.953 Y52.887
G0 X28.953 Y53.972
G0 X29.133 Y164.608
;TYPE:WALL-INNER
G1 F2700 E61.25991
G1 F1200 X29.133 Y54.152 E64.9337
G1 X189.427 Y54.152 E70.2651
G1 X189.827 Y54.204 E70.27851
G1 X190.163 Y54.345 E70.29063
G1 X190.455 Y54.57 E70.30289
G1 X190.673 Y54.855 E70.31483
G1 X190.815 Y55.199 E70.3272
G1 X190.867 Y55.601 E70.34069
G1 X190.866 Y163.163 E73.91821
G1 X190.813 Y163.565 E73.9317
G1 X190.671 Y163.905 E73.94395
G1 X190.448 Y164.196 E73.95615
G1 X190.162 Y164.414 E73.96811
G1 X189.823 Y164.555 E73.98032
G1 X189.432 Y164.608 E73.99344
G1 X29.133 Y164.608 E79.32501
G0 F6000 X28.733 Y165.008
;TYPE:WALL-OUTER
G1 F1200 X28.733 Y53.752 E83.0254
G1 X189.456 Y53.752 E88.37107
G1 X189.93 Y53.814 E88.38697
G1 X190.366 Y53.996 E88.40268
G1 X190.74 Y54.284 E88.41838
G1 X191.024 Y54.657 E88.43398
G1 X191.205 Y55.095 E88.44974
G1 X191.267 Y55.573 E88.46577
G1 X191.266 Y163.193 E92.04523
G1 X191.203 Y163.668 E92.06116
G1 X191.019 Y164.108 E92.07703
G1 X190.735 Y164.48 E92.09259
G1 X190.362 Y164.764 E92.10818
G1 X189.93 Y164.944 E92.12375
G1 X189.455 Y165.008 E92.13969
G1 X28.733 Y165.008 E97.48533
G0 F6000 X29.003 Y164.738
G0 X29.243 Y164.218
G0 X29.523 Y164.218
;TYPE:SKIN
G1 F1200 X29.523 Y54.542 E101.13317
G1 X189.406 Y54.542 E106.4509
G1 X189.724 Y54.584 E106.46156
G1 X189.963 Y54.684 E106.47018
G1 X190.176 Y54.847 E106.4791
G1 X190.332 Y55.051 E106.48764
G1 X190.435 Y55.303 E106.4967
G1 X190.477 Y55.622 E106.5074
G1 X190.476 Y163.142 E110.08353
G1 X190.434 Y163.46 E110.0942
G1 X190.331 Y163.708 E110.10313
G1 X190.169 Y163.919 E110.11198
G1 X189.967 Y164.073 E110.12043
G1 X189.718 Y164.176 E110.12939
G1 X189.41 Y164.218 E110.13973
G1 X29.523 Y164.218 E115.45759
G0 F6000 X29.989 Y164.057
G1 F1200 X29.682 Y163.75 E115.47203
G0 F6000 X29.682 Y163.184
G1 F1200 X30.555 Y164.057 E115.51309
G0 F6000 X31.121 Y164.057
G1 F1200 X29.682 Y162.619 E115.58076
G0 F6000 X29.682 Y162.053
G1 F1200 X31.686 Y164.057 E115.67502
G0 F6000 X32.252 Y164.057
G1 F1200 X29.682 Y161.487 E115.7959
G0 F6000 X29.682 Y160.921
G1 F1200 X32.818 Y164.057 E115.94341
G0 F6000 X33.383 Y164.057
G1 F1200 X29.682 Y160.356 E116.11749
G0 F6000 X29.682 Y159.79
G1 F1200 X33.949 Y164.057 E116.3182
G0 F6000 X34.515 Y164.057
G1 F1200 X29.682 Y159.224 E116.54553
G0 F6000 X29.682 Y158.659
G1 F1200 X35.08 Y164.057 E116.79944
G0 F6000 X35.646 Y164.057
G1 F1200 X29.682 Y158.093 E117.07996
G0 F6000 X29.682 Y157.527
G1 F1200 X36.212 Y164.057 E117.38712
G0 F6000 X36.778 Y164.057
G1 F1200 X29.682 Y156.962 E117.72087
G0 F6000 X29.682 Y156.396
G1 F1200 X37.343 Y164.057 E118.08122
G0 F6000 X37.909 Y164.057
G1 F1200 X29.682 Y155.83 E118.46819
G0 F6000 X29.682 Y155.265
G1 F1200 X38.475 Y164.057 E118.88176
G0 F6000 X39.04 Y164.057
G1 F1200 X29.682 Y154.699 E119.32193
G0 F6000 X29.682 Y154.133
G1 F1200 X39.606 Y164.057 E119.78873
G0 F6000 X40.172 Y164.057
G1 F1200 X29.682 Y153.568 E120.28212
G0 F6000 X29.682 Y153.002
G1 F1200 X40.737 Y164.057 E120.80211
G0 F6000 X41.303 Y164.057
G1 F1200 X29.682 Y152.436 E121.34873
G0 F6000 X29.682 Y151.87
G1 F1200 X41.869 Y164.057 E121.92197
G0 F6000 X42.434 Y164.057
G1 F1200 X29.682 Y151.305 E122.52178
G0 F6000 X29.682 Y150.739
G1 F1200 X43 Y164.057 E123.14822
G0 F6000 X43.566 Y164.057
G1 F1200 X29.682 Y150.173 E123.80128
G0 F6000 X29.682 Y149.608
G1 F1200 X44.131 Y164.057 E124.48092
G0 F6000 X44.697 Y164.057
G1 F1200 X29.682 Y149.042 E125.18718
G0 F6000 X29.682 Y148.476
G1 F1200 X45.263 Y164.057 E125.92006
G0 F6000 X45.829 Y164.057
G1 F1200 X29.682 Y147.911 E126.67954
G0 F6000 X29.682 Y147.345
G1 F1200 X46.394 Y164.057 E127.46563
G0 F6000 X46.96 Y164.057
G1 F1200 X29.682 Y146.779 E128.27833
G0 F6000 X29.682 Y146.214
G1 F1200 X47.526 Y164.057 E129.11763
G0 F6000 X48.091 Y164.057
G1 F1200 X29.682 Y145.648 E129.98354
G0 F6000 X29.682 Y145.082
G1 F1200 X48.657 Y164.057 E130.87606
G0 F6000 X49.223 Y164.057
G1 F1200 X29.682 Y144.517 E131.79519
G0 F6000 X29.682 Y143.951
G1 F1200 X49.788 Y164.057 E132.74091
G0 F6000 X50.354 Y164.057
G1 F1200 X29.682 Y143.385 E133.71326
G0 F6000 X29.682 Y142.82
G1 F1200 X50.92 Y164.057 E134.71221
G0 F6000 X51.485 Y164.057
G1 F1200 X29.682 Y142.254 E135.73775
G0 F6000 X29.682 Y141.688
G1 F1200 X52.051 Y164.057 E136.78992
G0 F6000 X52.617 Y164.057
G1 F1200 X29.682 Y141.122 E137.86871
G0 F6000 X29.682 Y140.557
G1 F1200 X53.182 Y164.057 E138.97408
G0 F6000 X53.748 Y164.057
G1 F1200 X29.682 Y139.991 E140.10607
G0 F6000 X29.682 Y139.425
G1 F1200 X54.314 Y164.057 E141.26469
G0 F6000 X54.879 Y164.057
G1 F1200 X29.682 Y138.86 E142.44988
G0 F6000 X29.682 Y138.294
G1 F1200 X55.445 Y164.057 E143.66169
G0 F6000 X56.011 Y164.057
G1 F1200 X29.682 Y137.728 E144.90012
G0 F6000 X29.682 Y137.163
G1 F1200 X56.577 Y164.057 E146.16516
G0 F6000 X57.142 Y164.057
G1 F1200 X29.682 Y136.597 E147.45679
G0 F6000 X29.682 Y136.031
G1 F1200 X57.708 Y164.057 E148.77505
G0 F6000 X58.274 Y164.057
G1 F1200 X29.682 Y135.466 E150.11991
G0 F6000 X29.682 Y134.9
G1 F1200 X58.839 Y164.057 E151.49136
G0 F6000 X59.405 Y164.057
G1 F1200 X29.682 Y134.334 E152.88944
G0 F6000 X29.682 Y133.769
G1 F1200 X59.971 Y164.057 E154.31412
G0 F6000 X60.536 Y164.057
