;FLAVOR:Marlin
;TIME:1242
;Filament used: 0.881779m
;Layer height: 0.2
;MINX:94
;MINY:50.739
;MINZ:0.2
;MAXX:126
;MAXY:170.643
;MAXZ:3
;Generated with Cura_SteamEngine 4.11.0
M140 S50
M105
M190 S50
M104 S200
M105
M109 S200
M82 ;absolute extrusion mode
; Ender 3 Custom Start G-code
G92 E0 ; Reset Extruder
G28 ; Home all axes
G1 Z2.0 F3000 ; Move Z Axis up little to prevent scratching of Heat Bed
G1 X0.1 Y20 Z0.3 F5000.0 ; Move to start position
G1 X0.1 Y200.0 Z0.3 F1500.0 E15 ; Draw the first line
G1 X0.4 Y200.0 Z0.3 F5000.0 ; Move to side a little
G1 X0.4 Y20 Z0.3 F1500.0 E30 ; Draw the second line
G92 E0 ; Reset Extruder
G1 Z2.0 F3000 ; Move Z Axis up little to prevent scratching of Heat Bed
G1 X5 Y20 Z0.3 F5000.0 ; Move over to prevent blob squish
G92 E0
G92 E0
G1 F2700 E-5
;LAYER_COUNT:15
;LAYER:0
M107
G0 F6000 X95.492 Y56.232 Z0.2
;TYPE:SKIRT
G1 F2700 E0
G1 F1200 X95.996 Y55.442 E0.03117
G1 X96.566 Y54.697 E0.06237
G1 X97.198 Y54.003 E0.09359
G1 X97.886 Y53.366 E0.12477
G1 X98.626 Y52.79 E0.15596
G1 X99.412 Y52.278 E0.18716
G1 X100.239 Y51.836 E0.21835
G1 X101.101 Y51.466 E0.24955
G1 X101.991 Y51.17 E0.28074
G1 X102.903 Y50.952 E0.31193
G1 X103.83 Y50.811 E0.34312
G1 X104.701 Y50.752 E0.37216
G1 X105.022 Y50.743 E0.38284
G1 X105.33 Y50.739 E0.39308
G1 X114.293 Y50.739 E0.69119
G1 X115.149 Y50.75 E0.71966
G1 X116.085 Y50.804 E0.75085
G1 X117.013 Y50.936 E0.78202
G1 X117.927 Y51.148 E0.81323
G1 X118.819 Y51.437 E0.84442
G1 X119.684 Y51.8 E0.87562
G1 X120.514 Y52.236 E0.9068
G1 X121.305 Y52.741 E0.93801
G1 X122.049 Y53.312 E0.96921
G1 X122.742 Y53.944 E1.0004
G1 X123.379 Y54.632 E1.03159
G1 X123.954 Y55.373 E1.06278
G1 X124.465 Y56.159 E1.09396
G1 X124.907 Y56.987 E1.12518
G1 X125.276 Y57.849 E1.15637
G1 X125.571 Y58.739 E1.18755
G1 X125.789 Y59.651 E1.21874
G1 X125.929 Y60.579 E1.24996
G1 X125.987 Y61.44 E1.27866
G1 X125.996 Y61.76 E1.28931
G1 X126 Y62.069 E1.29958
G1 X125.999 Y159.043 E4.52495
G1 X125.99 Y159.77 E4.54913
G1 X125.939 Y160.707 E4.58034
G1 X125.807 Y161.635 E4.61152
G1 X125.598 Y162.549 E4.64271
G1 X125.311 Y163.442 E4.6739
G1 X124.949 Y164.308 E4.70512
G1 X124.515 Y165.139 E4.7363
G1 X124.011 Y165.93 E4.7675
G1 X123.442 Y166.675 E4.79868
G1 X122.811 Y167.37 E4.8299
G1 X122.124 Y168.008 E4.86108
G1 X121.385 Y168.585 E4.89227
G1 X120.599 Y169.097 E4.92347
G1 X119.773 Y169.54 E4.95464
G1 X118.911 Y169.912 E4.98587
G1 X118.022 Y170.208 E5.01703
G1 X117.11 Y170.428 E5.04823
G1 X116.183 Y170.569 E5.07942
G1 X115.299 Y170.63 E5.10889
G1 X114.978 Y170.639 E5.11957
G1 X114.67 Y170.643 E5.12982
G1 X105.565 Y170.642 E5.43265
G1 X104.867 Y170.633 E5.45587
G1 X103.931 Y170.581 E5.48705
G1 X103.002 Y170.449 E5.51826
G1 X102.088 Y170.239 E5.54945
G1 X101.195 Y169.952 E5.58065
G1 X100.33 Y169.589 E5.61185
G1 X99.499 Y169.155 E5.64303
G1 X98.708 Y168.651 E5.67423
G1 X97.963 Y168.081 E5.70542
G1 X97.269 Y167.45 E5.73662
G1 X96.632 Y166.763 E5.76778
G1 X96.055 Y166.023 E5.79899
G1 X95.543 Y165.237 E5.83019
G1 X95.1 Y164.41 E5.8614
G1 X94.729 Y163.549 E5.89258
G1 X94.433 Y162.659 E5.92377
G1 X94.214 Y161.747 E5.95497
G1 X94.073 Y160.82 E5.98616
G1 X94.013 Y159.931 E6.01579
G1 X94.004 Y159.598 E6.02687
G1 X94 Y159.301 E6.03675
G1 X94.001 Y62.264 E9.26421
G1 X94.01 Y61.599 E9.28633
G1 X94.063 Y60.663 E9.31752
G1 X94.195 Y59.734 E9.34873
G1 X94.406 Y58.82 E9.37992
G1 X94.694 Y57.928 E9.4111
G1 X95.057 Y57.063 E9.4423
G1 X95.492 Y56.232 E9.4735
G0 F6000 X95.889 Y56.345
G1 F1200 X96.392 Y55.574 E9.50412
G1 X96.961 Y54.85 E9.53474
G1 X97.589 Y54.178 E9.56534
G1 X98.274 Y53.562 E9.59598
G1 X99.01 Y53.009 E9.6266
G1 X99.791 Y52.521 E9.65723
G1 X100.611 Y52.103 E9.68784
G1 X101.465 Y51.758 E9.71847
G1 X102.345 Y51.488 E9.74909
G1 X103.245 Y51.296 E9.7797
G1 X104.159 Y51.182 E9.81033
G1 X104.712 Y51.152 E9.82875
G1 X105.033 Y51.143 E9.83943
G1 X105.33 Y51.139 E9.84931
G1 X114.293 Y51.139 E10.14742
G1 X115.143 Y51.15 E10.17569
G1 X116.062 Y51.203 E10.20631
G1 X116.973 Y51.336 E10.23693
G1 X117.869 Y51.547 E10.26755
G1 X118.743 Y51.835 E10.29816
G1 X119.59 Y52.198 E10.32881
G1 X120.401 Y52.633 E10.35941
G1 X121.171 Y53.137 E10.39002
G1 X121.895 Y53.706 E10.42065
G1 X122.567 Y54.336 E10.45129
G1 X123.182 Y55.021 E10.48191
G1 X123.735 Y55.757 E10.51252
G1 X124.222 Y56.538 E10.54314
G1 X124.639 Y57.359 E10.57376
G1 X124.984 Y58.213 E10.6044
G1 X125.253 Y59.093 E10.635
G1 X125.445 Y59.994 E10.66564
G1 X125.558 Y60.907 E10.69624
G1 X125.587 Y61.451 E10.71436
G1 X125.596 Y61.771 E10.72501
G1 X125.6 Y62.069 E10.73492
G1 X125.599 Y159.038 E13.96012
G1 X125.59 Y159.765 E13.98431
G1 X125.539 Y160.684 E14.01492
G1 X125.408 Y161.596 E14.04556
G1 X125.198 Y162.492 E14.07617
G1 X124.912 Y163.367 E14.10679
G1 X124.551 Y164.214 E14.13741
G1 X124.117 Y165.026 E14.16804
G1 X123.615 Y165.798 E14.19866
G1 X123.047 Y166.523 E14.2293
G1 X122.419 Y167.196 E14.25991
G1 X121.735 Y167.812 E14.29053
G1 X121 Y168.366 E14.32114
G1 X120.22 Y168.855 E14.35176
G1 X119.4 Y169.274 E14.38239
G1 X118.547 Y169.62 E14.413
G1 X117.667 Y169.891 E14.44363
G1 X116.767 Y170.084 E14.47424
G1 X115.853 Y170.199 E14.50488
G1 X115.288 Y170.23 E14.5237
G1 X114.967 Y170.239 E14.53438
G1 X114.67 Y170.243 E14.54426
G1 X105.57 Y170.242 E14.84693
G1 X104.872 Y170.233 E14.87015
G1 X103.953 Y170.181 E14.90076
G1 X103.042 Y170.05 E14.93138
G1 X102.146 Y169.84 E14.96198
G1 X101.271 Y169.553 E14.99261
G1 X100.424 Y169.191 E15.02325
G1 X99.612 Y168.757 E15.05387
G1 X98.841 Y168.255 E15.08447
G1 X98.116 Y167.687 E15.1151
G1 X97.443 Y167.058 E15.14574
G1 X96.828 Y166.374 E15.17634
G1 X96.274 Y165.639 E15.20695
G1 X95.786 Y164.858 E15.23758
G1 X95.367 Y164.038 E15.26821
G1 X95.021 Y163.185 E15.29882
G1 X94.751 Y162.305 E15.32944
G1 X94.558 Y161.404 E15.36009
G1 X94.444 Y160.491 E15.39069
G1 X94.413 Y159.92 E15.40971
G1 X94.404 Y159.587 E15.42079
G1 X94.4 Y159.301 E15.4303
G1 X94.401 Y62.27 E18.65756
G1 X94.41 Y61.605 E18.67968
G1 X94.462 Y60.685 E18.71033
G1 X94.594 Y59.774 E18.74095
G1 X94.805 Y58.878 E18.77157
G1 X95.092 Y58.003 E18.80219
G1 X95.455 Y57.157 E18.83281
G1 X95.889 Y56.345 E18.86344
G0 F6000 X96.286 Y56.461
G1 F1200 X96.788 Y55.71 E18.89348
G1 X97.355 Y55.006 E18.92355
G1 X97.981 Y54.356 E18.95356
G1 X98.662 Y53.763 E18.98359
G1 X99.394 Y53.233 E19.01365
G1 X100.169 Y52.77 E19.04368
G1 X100.982 Y52.377 E19.07371
G1 X101.827 Y52.057 E19.10376
G1 X102.696 Y51.814 E19.13378
G1 X103.584 Y51.648 E19.16382
G1 X104.723 Y51.552 E19.20184
G1 X105.044 Y51.543 E19.21252
G1 X105.33 Y51.539 E19.22204
G1 X114.293 Y51.539 E19.52015
G1 X115.137 Y51.55 E19.54822
G1 X116.039 Y51.603 E19.57827
G1 X116.932 Y51.735 E19.6083
G1 X117.81 Y51.946 E19.63833
G1 X118.666 Y52.234 E19.66837
G1 X119.493 Y52.596 E19.69839
G1 X120.285 Y53.031 E19.72845
G1 X121.036 Y53.533 E19.75849
G1 X121.739 Y54.1 E19.78853
G1 X122.389 Y54.727 E19.81857
G1 X122.981 Y55.409 E19.84861
G1 X123.511 Y56.14 E19.87864
G1 X123.973 Y56.916 E19.90868
G1 X124.366 Y57.729 E19.93871
G1 X124.684 Y58.574 E19.96874
G1 X124.927 Y59.444 E19.99878
G1 X125.092 Y60.332 E20.02882
G1 X125.187 Y61.462 E20.06654
G1 X125.196 Y61.782 E20.07719
G1 X125.2 Y62.069 E20.08673
G1 X125.199 Y159.033 E23.31177
G1 X125.19 Y159.76 E23.33595
G1 X125.139 Y160.662 E23.366
G1 X125.008 Y161.556 E23.39605
G1 X124.799 Y162.434 E23.42607
G1 X124.513 Y163.291 E23.45612
G1 X124.152 Y164.119 E23.48616
G1 X123.72 Y164.911 E23.51617
G1 X123.219 Y165.663 E23.54622
G1 X122.653 Y166.367 E23.57627
G1 X122.028 Y167.018 E23.60628
G1 X121.347 Y167.612 E23.63634
G1 X120.616 Y168.143 E23.66639
G1 X119.842 Y168.607 E23.69641
G1 X119.029 Y169.001 E23.72645
G1 X118.185 Y169.321 E23.75648
G1 X117.315 Y169.566 E23.78654
G1 X116.428 Y169.732 E23.81655
G1 X115.277 Y169.83 E23.85497
G1 X114.956 Y169.839 E23.86565
G1 X114.67 Y169.843 E23.87517
G1 X105.575 Y169.842 E24.17767
G1 X104.877 Y169.833 E24.20088
G1 X103.976 Y169.782 E24.2309
G1 X103.082 Y169.65 E24.26096
G1 X102.204 Y169.441 E24.29097
G1 X101.347 Y169.154 E24.32103
G1 X100.52 Y168.793 E24.35105
G1 X99.727 Y168.36 E24.3811
G1 X98.976 Y167.859 E24.41112
G1 X98.272 Y167.293 E24.44117
G1 X97.621 Y166.667 E24.47121
G1 X97.028 Y165.986 E24.50124
G1 X96.498 Y165.255 E24.53127
G1 X96.034 Y164.48 E24.56132
G1 X95.64 Y163.667 E24.59136
G1 X95.32 Y162.823 E24.62139
G1 X95.076 Y161.953 E24.65144
G1 X94.91 Y161.065 E24.68149
G1 X94.813 Y159.91 E24.72004
G1 X94.804 Y159.577 E24.73112
G1 X94.8 Y159.301 E24.7403
G1 X94.801 Y62.275 E27.96739
G1 X94.81 Y61.61 E27.98951
G1 X94.862 Y60.708 E28.01957
G1 X94.994 Y59.815 E28.04959
G1 X95.204 Y58.937 E28.07962
G1 X95.491 Y58.08 E28.10968
G1 X95.853 Y57.253 E28.1397
G1 X96.286 Y56.461 E28.16972
G1 F2700 E23.16972
;MESH:Body8.stl
G0 F6000 X104.335 Y62.159
G0 X105.42 Y62.159
G0 X105.782 Y158.861
G0 X114.4 Y159.043
;TYPE:WALL-INNER
G1 F2700 E28.16972
G1 F1200 X105.6 Y159.043 E28.46241
G1 X105.6 Y62.339 E31.6788
G1 X114.4 Y62.339 E31.97149
G1 X114.4 Y159.043 E35.18788
G0 F6000 X114.8 Y159.443
;TYPE:WALL-OUTER
G1 F1200 X105.2 Y159.443 E35.50717
G1 X105.2 Y61.939 E38.75017
G1 X114.8 Y61.939 E39.06947
G1 X114.8 Y159.443 E42.31246
G0 F6000 X114.53 Y159.173
G0 X114.29 Y158.653
G0 X114.01 Y158.653
;TYPE:SKIN
G1 F1200 X105.99 Y158.653 E42.57921
G1 X105.99 Y62.729 E45.76966
G1 X114.01 Y62.729 E46.0364
G1 X114.01 Y158.653 E49.22685
G0 F6000 X114.29 Y158.653
G0 X106.449 Y158.933
G0 X106.449 Y158.492
G1 F1200 X106.149 Y158.192 E49.24096
G0 F6000 X106.149 Y157.626
G1 F1200 X107.014 Y158.492 E49.28167
G0 F6000 X107.58 Y158.492
G1 F1200 X106.149 Y157.061 E49.34898
G0 F6000 X106.149 Y156.495
G1 F1200 X108.146 Y158.492 E49.44291
G0 F6000 X108.712 Y158.492
G1 F1200 X106.149 Y155.929 E49.56347
G0 F6000 X106.149 Y155.364
G1 F1200 X109.277 Y158.492 E49.7106
G0 F6000 X109.843 Y158.492
G1 F1200 X106.149 Y154.798 E49.88435
G0 F6000 X106.149 Y154.232
G1 F1200 X110.409 Y158.492 E50.08473
G0 F6000 X110.974 Y158.492
G1 F1200 X106.149 Y153.667 E50.31168
G0 F6000 X106.149 Y153.101
G1 F1200 X111.54 Y158.492 E50.56526
G0 F6000 X112.106 Y158.492
G1 F1200 X106.149 Y152.535 E50.84546
G0 F6000 X106.149 Y151.969
G1 F1200 X112.671 Y158.492 E51.15226
G0 F6000 X113.237 Y158.492
G1 F1200 X106.149 Y151.404 E51.48566
G0 F6000 X106.149 Y150.838
G1 F1200 X113.803 Y158.492 E51.84568
G0 F6000 X113.849 Y157.973
G1 F1200 X106.149 Y150.272 E52.20788
G0 F6000 X106.149 Y149.707
G1 F1200 X113.849 Y157.407 E52.57007
G0 F6000 X113.849 Y156.841
G1 F1200 X106.149 Y149.141 E52.93225
G0 F6000 X106.149 Y148.575
G1 F1200 X113.849 Y156.276 E53.29446
G0 F6000 X113.849 Y155.71
G1 F1200 X106.149 Y148.01 E53.65664
G0 F6000 X106.149 Y147.444
G1 F1200 X113.849 Y155.144 E54.01883
G0 F6000 X113.849 Y154.579
G1 F1200 X106.149 Y146.878 E54.38104
G0 F6000 X106.149 Y146.313
G1 F1200 X113.849 Y154.013 E54.74322
G0 F6000 X113.849 Y153.447
G1 F1200 X106.149 Y145.747 E55.10541
G0 F6000 X106.149 Y145.181
G1 F1200 X113.849 Y152.882 E55.46761
G0 F6000 X113.849 Y152.316
G1 F1200 X106.149 Y144.616 E55.8298
G0 F6000 X106.149 Y144.05
G1 F1200 X113.849 Y151.75 E56.19198
G0 F6000 X113.849 Y151.185
G1 F1200 X106.149 Y143.484 E56.55419
G0 F6000 X106.149 Y142.919
G1 F1200 X113.849 Y150.619 E56.91637
G0 F6000 X113.849 Y150.053
G1 F1200 X106.149 Y142.353 E57.27856
G0 F6000 X106.149 Y141.787
G1 F1200 X113.849 Y149.488 E57.64077
G0 F6000 X113.849 Y148.922
G1 F1200 X106.149 Y141.221 E58.00298
G0 F6000 X106.149 Y140.656
G1 F1200 X113.849 Y148.356 E58.36516
G0 F6000 X113.849 Y147.79
G1 F1200 X106.149 Y140.09 E58.72734
G0 F6000 X106.149 Y139.524
G1 F1200 X113.849 Y147.225 E59.08955
G0 F6000 X113.849 Y146.659
G1 F1200 X106.149 Y138.959 E59.45174
G0 F6000 X106.149 Y138.393
G1 F1200 X113.849 Y146.093 E59.81392
G0 F6000 X113.849 Y145.528
G1 F1200 X106.149 Y137.827 E60.17613
G0 F6000 X106.149 Y137.262
G1 F1200 X113.849 Y144.962 E60.53831
G0 F6000 X113.849 Y144.396
G1 F1200 X106.149 Y136.696 E60.9005
G0 F6000 X106.149 Y136.13
G1 F1200 X113.849 Y143.831 E61.26271
G0 F6000 X113.849 Y143.265
G1 F1200 X106.149 Y135.565 E61.62489
G0 F6000 X106.149 Y134.999
G1 F1200 X113.849 Y142.699 E61.98707
G0 F6000 X113.849 Y142.134
G1 F1200 X106.149 Y134.433 E62.34928
G0 F6000 X106.149 Y133.868
G1 F1200 X113.849 Y141.568 E62.71147
G0 F6000 X113.849 Y141.002
G1 F1200 X106.149 Y133.302 E63.07365
G0 F6000 X106.149 Y132.736
G1 F1200 X113.849 Y140.437 E63.43586
G0 F6000 X113.849 Y139.871
G1 F1200 X106.149 Y132.17 E63.79807
G0 F6000 X106.149 Y131.605
G1 F1200 X113.849 Y139.305 E64.16025
G0 F6000 X113.849 Y138.74
G1 F1200 X106.149 Y131.039 E64.52246
G0 F6000 X106.149 Y130.473
G1 F1200 X113.849 Y138.174 E64.88467
G0 F6000 X113.849 Y137.608
G1 F1200 X106.149 Y129.908 E65.24685
G0 F6000 X106.149 Y129.342
G1 F1200 X113.849 Y137.042 E65.60904
G0 F6000 X113.849 Y136.477
G1 F1200 X106.149 Y128.776 E65.97124
G0 F6000 X106.149 Y128.211
G1 F1200 X113.849 Y135.911 E66.33343
G0 F6000 X113.849 Y135.345
G1 F1200 X106.149 Y127.645 E66.69561
G0 F6000 X106.149 Y127.079
G1 F1200 X113.849 Y134.78 E67.05782
G0 F6000 X113.849 Y134.214
G1 F1200 X106.149 Y126.514 E67.42
G0 F6000 X106.149 Y125.948
G1 F1200 X113.849 Y133.648 E67.78219
G0 F6000 X113.849 Y133.083
G1 F1200 X106.149 Y125.382 E68.1444
G0 F6000 X106.149 Y124.817
G1 F1200 X113.849 Y132.517 E68.50658
G0 F6000 X113.849 Y131.951
G1 F1200 X106.149 Y124.251 E68.86877
G0 F6000 X106.149 Y123.685
G1 F1200 X113.849 Y131.386 E69.23097
G0 F6000 X113.849 Y130.82
G1 F1200 X106.149 Y123.12 E69.59316
G0 F6000 X106.149 Y122.554
G1 F1200 X113.849 Y130.254 E69.95534
G0 F6000 X113.849 Y129.689
G1 F1200 X106.149 Y121.988 E70.31755
G0 F6000 X106.149 Y121.422
G1 F1200 X113.849 Y129.123 E70.67976
G0 F6000 X113.849 Y128.557
G1 F1200 X106.149 Y120.857 E71.04194
G0 F6000 X106.149 Y120.291
G1 F1200 X113.849 Y127.991 E71.40413
G0 F6000 X113.849 Y127.426
G1 F1200 X106.149 Y119.725 E71.76633
G0 F6000 X106.149 Y119.16
G1 F1200 X113.849 Y126.86 E72.12852
G0 F6000 X113.849 Y126.294
G1 F1200 X106.149 Y118.594 E72.4907
G0 F6000 X106.149 Y118.028
G1 F1200 X113.849 Y125.729 E72.85291
G0 F6000 X113.849 Y125.163
G1 F1200 X106.149 Y117.463 E73.2151
G0 F6000 X106.149 Y116.897
G1 F1200 X113.849 Y124.597 E73.57728
G0 F6000 X113.849 Y124.032
G1 F1200 X106.149 Y116.331 E73.93949
G0 F6000 X106.149 Y115.766
G1 F1200 X113.849 Y123.466 E74.30167
G0 F6000 X113.849 Y122.9
G1 F1200 X106.149 Y115.2 E74.66386
G0 F6000 X106.149 Y114.634
G1 F1200 X113.849 Y122.335 E75.02606
G0 F6000 X113.849 Y121.769
G1 F1200 X106.149 Y114.069 E75.38825
G0 F6000 X106.149 Y113.503
G1 F1200 X113.849 Y121.203 E75.75043
G0 F6000 X113.849 Y120.638
G1 F1200 X106.149 Y112.937 E76.11264
G0 F6000 X106.149 Y112.371
G1 F1200 X113.849 Y120.072 E76.47485
G0 F6000 X113.849 Y119.506
G1 F1200 X106.149 Y111.806 E76.83703
G0 F6000 X106.149 Y111.24
G1 F1200 X113.849 Y118.941 E77.19924
G0 F6000 X113.849 Y118.375
G1 F1200 X106.149 Y110.674 E77.56145
G0 F6000 X106.149 Y110.109
G1 F1200 X113.849 Y117.809 E77.92363
G0 F6000 X113.849 Y117.243
G1 F1200 X106.149 Y109.543 E78.28582
G0 F6000 X106.149 Y108.977
G1 F1200 X113.849 Y116.678 E78.64803
G0 F6000 X113.849 Y116.112
G1 F1200 X106.149 Y108.412 E79.01021
G0 F6000 X106.149 Y107.846
G1 F1200 X113.849 Y115.546 E79.3724
G0 F6000 X113.849 Y114.981
G1 F1200 X106.149 Y107.28 E79.7346
G0 F6000 X106.149 Y106.715
G1 F1200 X113.849 Y114.415 E80.09679
G0 F6000 X113.849 Y113.849
G1 F1200 X106.149 Y106.149 E80.45897
G0 F6000 X106.149 Y105.583
G1 F1200 X113.849 Y113.284 E80.82118
G0 F6000 X113.849 Y112.718
G1 F1200 X106.149 Y105.018 E81.18336
G0 F6000 X106.149 Y104.452
G1 F1200 X113.849 Y112.152 E81.54555
G0 F6000 X113.849 Y111.587
G1 F1200 X106.149 Y103.886 E81.90776
G0 F6000 X106.149 Y103.321
G1 F1200 X113.849 Y111.021 E82.26994
G0 F6000 X113.849 Y110.455
G1 F1200 X106.149 Y102.755 E82.63213
G0 F6000 X106.149 Y102.189
G1 F1200 X113.849 Y109.89 E82.99433
G0 F6000 X113.849 Y109.324
G1 F1200 X106.149 Y101.623 E83.35654
G0 F6000 X106.149 Y101.058
G1 F1200 X113.849 Y108.758 E83.71873
G0 F6000 X113.849 Y108.192
G1 F1200 X106.149 Y100.492 E84.08091
G0 F6000 X106.149 Y99.926
G1 F1200 X113.849 Y107.627 E84.44312
G0 F6000 X113.849 Y107.061
G1 F1200 X106.149 Y99.361 E84.8053
G0 F6000 X106.149 Y98.795
G1 F1200 X113.849 Y106.495 E85.16749
