;FLAVOR:Marlin
;TIME:3301
;Filament used: 1.94741m
;Layer height: 0.2
;MINX:27.86
;MINY:43.478
;MINZ:0.2
;MAXX:192.14
;MAXY:176.522
;MAXZ:7
;Generated with Cura_SteamEngine 4.11.0
M140 S50
M105
M190 S50
M104 S200
M105
M109 S200
M82 ;absolute extrusion mode
; Ender 3 Custom Start G-code
G92 E0 ; Reset Extruder
G28 ; Home all axes
G1 Z2.0 F3000 ; Move Z Axis up little to prevent scratching of Heat Bed
G1 X0.1 Y20 Z0.3 F5000.0 ; Move to start position
G1 X0.1 Y200.0 Z0.3 F1500.0 E15 ; Draw the first line
G1 X0.4 Y200.0 Z0.3 F5000.0 ; Move to side a little
G1 X0.4 Y20 Z0.3 F1500.0 E30 ; Draw the second line
G92 E0 ; Reset Extruder
G1 Z2.0 F3000 ; Move Z Axis up little to prevent scratching of Heat Bed
G1 X5 Y20 Z0.3 F5000.0 ; Move over to prevent blob squish
G92 E0
G92 E0
G1 F2700 E-5
;LAYER_COUNT:35
;LAYER:0
M107
G0 F6000 X32.481 Y45.532 Z0.2
;TYPE:SKIRT
G1 F2700 E0
G1 F1200 X33.267 Y45.02 E0.0312
G1 X34.094 Y44.577 E0.0624
G1 X34.956 Y44.207 E0.0936
G1 X35.846 Y43.911 E0.1248
G1 X36.758 Y43.692 E0.15599
G1 X37.685 Y43.551 E0.18718
G1 X38.561 Y43.491 E0.21639
G1 X38.882 Y43.482 E0.22707
G1 X39.19 Y43.478 E0.23731
G1 X178.599 Y43.48 E4.87407
G1 X179.297 Y43.49 E4.89729
G1 X180.153 Y43.536 E4.9258
G1 X180.315 Y43.551 E4.93121
G1 X180.924 Y43.624 E4.95161
G1 X181.239 Y43.671 E4.96221
G1 X182.16 Y43.849 E4.99341
G1 X183.063 Y44.105 E5.02462
G1 X183.653 Y44.318 E5.04549
G1 X184.16 Y44.518 E5.06362
G1 X185.017 Y44.899 E5.09481
G1 X185.838 Y45.352 E5.126
G1 X186.689 Y45.926 E5.16014
G1 X187.025 Y46.176 E5.17407
G1 X187.322 Y46.404 E5.18652
G1 X188.034 Y47.015 E5.21773
G1 X188.691 Y47.685 E5.24894
G1 X189.143 Y48.219 E5.27221
G1 X189.425 Y48.575 E5.28731
G1 X189.727 Y48.975 E5.30398
G1 X190.249 Y49.754 E5.33517
G1 X190.703 Y50.575 E5.36637
G1 X190.947 Y51.099 E5.3856
G1 X191.102 Y51.456 E5.39854
G1 X191.267 Y51.857 E5.41297
G1 X191.578 Y52.742 E5.44417
G1 X191.812 Y53.65 E5.47535
G1 X191.93 Y54.298 E5.49726
G1 X191.982 Y54.642 E5.50883
G1 X192.025 Y54.956 E5.51937
G1 X192.049 Y55.153 E5.52597
G1 X192.124 Y56.115 E5.55807
G1 X192.132 Y56.354 E5.56602
G1 X192.138 Y56.628 E5.57514
G1 X192.14 Y56.955 E5.58601
G1 X192.138 Y162.981 E9.11245
G1 X192.128 Y163.678 E9.13564
G1 X192.085 Y164.502 E9.16308
G1 X192.072 Y164.647 E9.16792
G1 X191.998 Y165.269 E9.18875
G1 X191.947 Y165.615 E9.20039
G1 X191.771 Y166.536 E9.23157
G1 X191.517 Y167.439 E9.26277
G1 X191.287 Y168.075 E9.28527
G1 X191.093 Y168.563 E9.30273
G1 X190.71 Y169.419 E9.33392
G1 X190.255 Y170.239 E9.36512
G1 X189.674 Y171.096 E9.39955
G1 X189.372 Y171.499 E9.4163
G1 X188.778 Y172.224 E9.44748
G1 X188.124 Y172.897 E9.47869
G1 X187.384 Y173.536 E9.51121
G1 X187.009 Y173.832 E9.5271
G1 X186.687 Y174.077 E9.54055
G1 X185.911 Y174.603 E9.57173
G1 X185.092 Y175.061 E9.60294
G1 X184.52 Y175.33 E9.62397
G1 X184.207 Y175.466 E9.63532
G1 X183.763 Y175.648 E9.65128
G1 X182.878 Y175.959 E9.68248
G1 X181.97 Y176.193 E9.71367
G1 X181.303 Y176.314 E9.73621
G1 X180.888 Y176.376 E9.75017
G1 X180.503 Y176.427 E9.76308
G1 X180.362 Y176.443 E9.7678
G1 X179.473 Y176.507 E9.79745
G1 X178.999 Y176.52 E9.81322
G1 X178.77 Y176.522 E9.82084
G1 X39.425 Y176.521 E14.45547
G1 X38.727 Y176.512 E14.47869
G1 X37.791 Y176.46 E14.50987
G1 X36.862 Y176.328 E14.54108
G1 X35.948 Y176.118 E14.57227
G1 X35.055 Y175.831 E14.60347
G1 X34.19 Y175.468 E14.63467
G1 X33.359 Y175.034 E14.66585
G1 X32.568 Y174.53 E14.69704
G1 X31.823 Y173.96 E14.72824
G1 X31.129 Y173.329 E14.75944
G1 X30.492 Y172.642 E14.7906
G1 X29.915 Y171.902 E14.82181
G1 X29.403 Y171.116 E14.85301
G1 X28.96 Y170.289 E14.88422
G1 X28.589 Y169.428 E14.9154
G1 X28.293 Y168.538 E14.94659
G1 X28.074 Y167.626 E14.97779
G1 X27.933 Y166.699 E15.00898
G1 X27.873 Y165.808 E15.03868
G1 X27.864 Y165.473 E15.04982
G1 X27.86 Y165.178 E15.05964
G1 X27.861 Y163.573 E15.11302
G1 X27.871 Y162.869 E15.13644
G1 X27.924 Y161.932 E15.16765
G1 X28.057 Y161.004 E15.19883
G1 X28.269 Y160.09 E15.23004
G1 X28.557 Y159.198 E15.26121
G1 X28.921 Y158.333 E15.29243
G1 X29.499 Y157.265 E15.33282
G1 X29.842 Y156.706 E15.35463
G1 X31.178 Y154.465 E15.44141
G1 X32.41 Y152.255 E15.52556
G1 X33.571 Y150.028 E15.60909
G1 X34.674 Y147.758 E15.69304
G1 X35.712 Y145.461 E15.77687
G1 X36.688 Y143.128 E15.86099
G1 X37.582 Y140.801 E15.9439
G1 X38.417 Y138.434 E16.02738
G1 X39.192 Y136.021 E16.11167
G1 X39.889 Y133.623 E16.19473
G1 X40.527 Y131.168 E16.2791
G1 X41.096 Y128.701 E16.3633
G1 X41.581 Y126.267 E16.44585
G1 X42.01 Y123.758 E16.53051
G1 X42.365 Y121.27 E16.6141
G1 X42.644 Y118.801 E16.69674
G1 X42.861 Y116.242 E16.78216
G1 X43.001 Y113.78 E16.86418
G1 X43.072 Y111.23 E16.94903
G1 X43.072 Y108.706 E17.03298
G1 X43 Y106.211 E17.11599
G1 X42.859 Y103.708 E17.19938
G1 X42.644 Y101.195 E17.28326
G1 X42.356 Y98.664 E17.36799
G1 X42.007 Y96.216 E17.45023
G1 X41.578 Y93.717 E17.53457
G1 X41.075 Y91.213 E17.61951
G1 X40.528 Y88.831 E17.7008
G1 X39.886 Y86.368 E17.78546
G1 X39.175 Y83.923 E17.87015
G1 X38.403 Y81.526 E17.9539
G1 X37.58 Y79.196 E18.03609
G1 X36.665 Y76.822 E18.12071
G1 X35.689 Y74.489 E18.20483
G1 X34.66 Y72.212 E18.28793
G1 X33.557 Y69.945 E18.37179
G1 X32.384 Y67.697 E18.45612
G1 X31.155 Y65.497 E18.53994
G1 X29.867 Y63.336 E18.62361
G1 X29.694 Y63.06 E18.63444
G1 X29.553 Y62.829 E18.64345
G1 X29.405 Y62.579 E18.65311
G1 X28.962 Y61.752 E18.68431
G1 X28.591 Y60.891 E18.7155
G1 X28.295 Y60.001 E18.74669
G1 X28.131 Y59.352 E18.76896
G1 X27.967 Y58.429 E18.80014
G1 X27.873 Y57.262 E18.83908
G1 X27.864 Y56.928 E18.85019
G1 X27.86 Y56.632 E18.86003
G1 X27.861 Y55.032 E18.91325
G1 X27.87 Y54.343 E18.93617
G1 X27.922 Y53.407 E18.96735
G1 X28.054 Y52.478 E18.99856
G1 X28.264 Y51.564 E19.02975
G1 X28.552 Y50.672 E19.06093
G1 X28.914 Y49.807 E19.09211
G1 X29.349 Y48.976 E19.12331
G1 X29.853 Y48.185 E19.15451
G1 X30.423 Y47.44 E19.1857
G1 X31.054 Y46.746 E19.2169
G1 X31.742 Y46.108 E19.24811
G1 X32.481 Y45.532 E19.27927
G0 F6000 X32.866 Y45.751
G1 F1200 X33.647 Y45.263 E19.3099
G1 X34.467 Y44.844 E19.34053
G1 X35.32 Y44.499 E19.37113
G1 X36.2 Y44.228 E19.40176
G1 X37.1 Y44.036 E19.43237
G1 X38.014 Y43.922 E19.463
G1 X38.572 Y43.891 E19.48159
G1 X38.893 Y43.882 E19.49227
G1 X39.19 Y43.878 E19.50215
G1 X178.593 Y43.88 E24.13871
G1 X179.291 Y43.89 E24.16193
G1 X180.116 Y43.934 E24.18941
G1 X180.278 Y43.949 E24.19482
G1 X180.865 Y44.02 E24.21449
G1 X181.18 Y44.067 E24.22508
G1 X182.084 Y44.242 E24.2557
G1 X182.969 Y44.495 E24.28632
G1 X183.506 Y44.69 E24.30532
G1 X184.013 Y44.89 E24.32345
G1 X184.854 Y45.265 E24.35408
G1 X185.659 Y45.711 E24.38468
G1 X186.451 Y46.247 E24.41649
G1 X186.787 Y46.497 E24.43042
G1 X187.075 Y46.719 E24.44252
G1 X187.773 Y47.319 E24.47313
G1 X188.416 Y47.977 E24.50373
G1 X188.829 Y48.467 E24.52504
G1 X189.111 Y48.823 E24.54015
G1 X189.405 Y49.212 E24.55637
G1 X189.917 Y49.977 E24.58698
G1 X190.36 Y50.784 E24.6176
G1 X190.58 Y51.258 E24.63498
G1 X190.735 Y51.615 E24.64793
G1 X190.896 Y52.005 E24.66196
G1 X191.2 Y52.874 E24.69258
G1 X191.428 Y53.766 E24.7232
G1 X191.535 Y54.358 E24.74321
G1 X191.587 Y54.702 E24.75478
G1 X191.628 Y55.004 E24.76492
G1 X191.652 Y55.201 E24.77152
G1 X191.724 Y56.128 E24.80245
G1 X191.738 Y56.631 E24.81918
G1 X191.74 Y56.955 E24.82996
G1 X191.738 Y162.975 E28.3562
G1 X191.728 Y163.672 E28.37938
G1 X191.687 Y164.467 E28.40586
G1 X191.674 Y164.612 E28.4107
G1 X191.603 Y165.211 E28.43076
G1 X191.552 Y165.557 E28.4424
G1 X191.378 Y166.461 E28.47302
G1 X191.127 Y167.346 E28.50361
G1 X190.915 Y167.927 E28.52418
G1 X190.721 Y168.415 E28.54165
G1 X190.344 Y169.255 E28.57227
G1 X189.896 Y170.059 E28.60288
G1 X189.354 Y170.856 E28.63494
G1 X189.052 Y171.259 E28.65169
G1 X188.468 Y171.971 E28.68232
G1 X187.825 Y172.629 E28.71292
G1 X187.137 Y173.222 E28.74313
G1 X186.762 Y173.518 E28.75902
G1 X186.449 Y173.756 E28.7721
G1 X185.686 Y174.272 E28.80273
G1 X184.882 Y174.719 E28.83333
G1 X184.36 Y174.963 E28.85249
G1 X184.047 Y175.099 E28.86385
G1 X183.76 Y175.219 E28.87419
G1 X183.615 Y175.277 E28.87939
G1 X182.746 Y175.581 E28.91001
G1 X181.854 Y175.809 E28.94063
G1 X181.244 Y175.919 E28.96124
G1 X180.829 Y175.981 E28.9752
G1 X180.458 Y176.029 E28.98764
G1 X180.317 Y176.045 E28.99236
G1 X179.461 Y176.108 E29.02091
G1 X178.996 Y176.12 E29.03638
G1 X178.767 Y176.122 E29.044
G1 X39.43 Y176.121 E33.67837
G1 X38.732 Y176.112 E33.70158
G1 X37.813 Y176.06 E33.7322
G1 X36.902 Y175.929 E33.76281
G1 X36.006 Y175.719 E33.79342
G1 X35.131 Y175.432 E33.82405
G1 X34.284 Y175.07 E33.85468
G1 X33.472 Y174.636 E33.88531
G1 X32.701 Y174.134 E33.91591
G1 X31.976 Y173.566 E33.94654
G1 X31.303 Y172.937 E33.97718
G1 X30.688 Y172.253 E34.00777
G1 X30.134 Y171.518 E34.03838
G1 X29.646 Y170.737 E34.06901
G1 X29.227 Y169.917 E34.09964
G1 X28.881 Y169.064 E34.13026
G1 X28.611 Y168.184 E34.16087
G1 X28.418 Y167.283 E34.19152
G1 X28.304 Y166.37 E34.22212
G1 X28.273 Y165.798 E34.24117
G1 X28.264 Y165.463 E34.25232
G1 X28.26 Y165.178 E34.2618
G1 X28.261 Y163.578 E34.31502
G1 X28.271 Y162.874 E34.33843
G1 X28.324 Y161.955 E34.36905
G1 X28.457 Y161.044 E34.39967
G1 X28.668 Y160.148 E34.43029
G1 X28.956 Y159.274 E34.4609
G1 X29.319 Y158.428 E34.49152
G1 X29.84 Y157.474 E34.52767
G1 X30.171 Y156.935 E34.54871
G1 X31.527 Y154.659 E34.63682
G1 X32.756 Y152.456 E34.72073
G1 X33.942 Y150.181 E34.80606
G1 X35.027 Y147.948 E34.88863
G1 X36.081 Y145.614 E34.97381
G1 X37.054 Y143.289 E35.05764
G1 X37.96 Y140.929 E35.14172
G1 X38.799 Y138.552 E35.22556
G1 X39.574 Y136.14 E35.30982
G1 X40.271 Y133.739 E35.39297
G1 X40.92 Y131.245 E35.47869
G1 X41.49 Y128.771 E35.56313
G1 X41.975 Y126.34 E35.64558
G1 X42.402 Y123.845 E35.72977
G1 X42.76 Y121.335 E35.81409
G1 X43.045 Y118.808 E35.89868
G1 X43.258 Y116.298 E35.98246
G1 X43.401 Y113.78 E36.06634
G1 X43.472 Y111.241 E36.15082
G1 X43.472 Y108.729 E36.23437
G1 X43.399 Y106.178 E36.31925
G1 X43.256 Y103.651 E36.40344
G1 X43.042 Y101.152 E36.48686
G1 X42.756 Y98.629 E36.57131
G1 X42.403 Y96.163 E36.65417
G1 X41.965 Y93.607 E36.74042
G1 X41.48 Y91.192 E36.82235
G1 X40.908 Y88.706 E36.90719
G1 X40.265 Y86.237 E36.99205
G1 X39.561 Y83.816 E37.07591
G1 X38.789 Y81.418 E37.1597
G1 X37.944 Y79.024 E37.24414
G1 X37.044 Y76.689 E37.32737
G1 X36.064 Y74.349 E37.41175
G1 X35.012 Y72.022 E37.49668
G1 X33.914 Y69.763 E37.58022
G1 X32.745 Y67.524 E37.66423
G1 X31.513 Y65.32 E37.74821
G1 X30.19 Y63.099 E37.8342
G1 X30.033 Y62.848 E37.84404
G1 X29.75 Y62.375 E37.86238
G1 X29.315 Y61.563 E37.89301
G1 X28.953 Y60.717 E37.92362
G1 X28.666 Y59.842 E37.95425
G1 X28.521 Y59.265 E37.97404
G1 X28.361 Y58.359 E38.00464
G1 X28.273 Y57.252 E38.04157
G1 X28.264 Y56.918 E38.05268
G1 X28.26 Y56.632 E38.0622
G1 X28.261 Y55.038 E38.11521
G1 X28.27 Y54.349 E38.13813
G1 X28.322 Y53.429 E38.16878
G1 X28.453 Y52.518 E38.19939
G1 X28.664 Y51.622 E38.23001
G1 X28.951 Y50.747 E38.26064
G1 X29.313 Y49.901 E38.29124
G1 X29.747 Y49.089 E38.32187
G1 X30.249 Y48.317 E38.35249
G1 X30.817 Y47.593 E38.3831
G1 X31.446 Y46.92 E38.41374
G1 X32.131 Y46.305 E38.44436
G1 X32.866 Y45.751 E38.47497
G0 F6000 X33.25 Y45.975
G1 F1200 X34.024 Y45.511 E38.50498
G1 X34.837 Y45.118 E38.53502
G1 X35.682 Y44.798 E38.56507
G1 X36.552 Y44.554 E38.59512
G1 X37.439 Y44.388 E38.62514
G1 X38.583 Y44.291 E38.66332
G1 X38.904 Y44.282 E38.674
G1 X39.19 Y44.278 E38.68352
G1 X178.587 Y44.28 E43.31988
G1 X179.285 Y44.29 E43.3431
G1 X180.079 Y44.332 E43.36954
G1 X180.241 Y44.347 E43.37496
G1 X180.806 Y44.416 E43.39389
G1 X181.121 Y44.463 E43.40448
G1 X182.008 Y44.635 E43.43453
G1 X182.875 Y44.886 E43.46455
G1 X183.359 Y45.063 E43.48169
G1 X183.866 Y45.263 E43.49982
G1 X184.691 Y45.631 E43.52987
G1 X185.479 Y46.071 E43.55988
G1 X186.212 Y46.568 E43.58934
G1 X186.548 Y46.818 E43.60327
G1 X186.828 Y47.033 E43.61501
G1 X187.512 Y47.622 E43.64503
G1 X188.141 Y48.27 E43.67507
G1 X188.515 Y48.716 E43.69443
G1 X188.797 Y49.072 E43.70953
G1 X189.027 Y49.373 E43.72213
G1 X189.082 Y49.448 E43.72523
G1 X189.584 Y50.199 E43.75527
G1 X190.017 Y50.992 E43.78532
G1 X190.213 Y51.418 E43.80092
G1 X190.368 Y51.775 E43.81386
G1 X190.524 Y52.154 E43.8275
G1 X190.822 Y53.006 E43.85752
G1 X191.044 Y53.882 E43.88757
G1 X191.139 Y54.417 E43.90565
G1 X191.191 Y54.761 E43.91722
G1 X191.231 Y55.052 E43.92699
G1 X191.255 Y55.249 E43.93359
G1 X191.324 Y56.142 E43.96338
G1 X191.338 Y56.634 E43.97975
G1 X191.34 Y56.955 E43.99042
G1 X191.338 Y162.969 E47.51646
G1 X191.328 Y163.666 E47.53965
G1 X191.288 Y164.431 E47.56513
G1 X191.275 Y164.576 E47.56997
G1 X191.207 Y165.152 E47.58926
G1 X191.156 Y165.498 E47.60089
G1 X190.985 Y166.385 E47.63094
G1 X190.736 Y167.253 E47.66097
G1 X190.543 Y167.779 E47.67961
G1 X190.349 Y168.267 E47.69707
G1 X189.979 Y169.091 E47.72712
G1 X189.537 Y169.878 E47.75714
G1 X189.033 Y170.616 E47.78686
G1 X188.731 Y171.019 E47.80361
G1 X188.158 Y171.717 E47.83365
G1 X187.526 Y172.361 E47.86366
G1 X186.889 Y172.908 E47.89159
G1 X186.514 Y173.204 E47.90748
G1 X186.211 Y173.435 E47.92015
G1 X185.462 Y173.94 E47.95019
G1 X184.672 Y174.377 E47.98022
G1 X184.201 Y174.596 E47.9975
G1 X183.888 Y174.732 E48.00885
G1 X183.466 Y174.905 E48.02402
G1 X182.614 Y175.203 E48.05404
G1 X181.738 Y175.425 E48.08409
G1 X181.185 Y175.523 E48.10277
G1 X180.77 Y175.585 E48.11673
G1 X180.413 Y175.632 E48.12871
G1 X180.272 Y175.648 E48.13343
G1 X179.448 Y175.708 E48.16091
G1 X178.992 Y175.72 E48.17608
G1 X178.763 Y175.722 E48.18369
G1 X39.435 Y175.721 E52.81776
G1 X38.737 Y175.712 E52.84098
G1 X37.836 Y175.661 E52.871
G1 X36.942 Y175.529 E52.90105
G1 X36.064 Y175.32 E52.93107
G1 X35.207 Y175.033 E52.96113
G1 X34.38 Y174.672 E52.99114
G1 X33.587 Y174.239 E53.02119
G1 X32.836 Y173.738 E53.05122
G1 X32.132 Y173.172 E53.08126
G1 X31.481 Y172.546 E53.1113
G1 X30.888 Y171.865 E53.14134
G1 X30.358 Y171.134 E53.17137
G1 X29.894 Y170.359 E53.20141
G1 X29.5 Y169.546 E53.23146
G1 X29.18 Y168.702 E53.26148
G1 X28.936 Y167.832 E53.29153
G1 X28.77 Y166.944 E53.32158
G1 X28.673 Y165.787 E53.3602
G1 X28.664 Y165.452 E53.37134
G1 X28.66 Y165.178 E53.38046
G1 X28.661 Y163.584 E53.43348
G1 X28.671 Y162.88 E53.45689
G1 X28.724 Y161.979 E53.48691
G1 X28.856 Y161.085 E53.51697
G1 X29.067 Y160.207 E53.547
G1 X29.355 Y159.351 E53.57704
G1 X29.717 Y158.524 E53.60707
G1 X30.18 Y157.684 E53.63897
G1 X30.544 Y157.091 E53.66211
G1 X31.878 Y154.852 E53.7488
G1 X33.102 Y152.657 E53.83239
G1 X34.299 Y150.362 E53.91848
G1 X35.394 Y148.109 E54.00179
G1 X36.444 Y145.784 E54.08664
G1 X37.432 Y143.421 E54.17183
G1 X38.324 Y141.102 E54.25447
G1 X39.185 Y138.66 E54.34059
G1 X39.953 Y136.269 E54.42412
G1 X40.666 Y133.814 E54.50915
G1 X41.304 Y131.364 E54.59335
G1 X41.878 Y128.874 E54.67834
G1 X42.368 Y126.414 E54.76177
G1 X42.799 Y123.891 E54.8469
G1 X43.159 Y121.37 E54.9316
G1 X43.444 Y118.851 E55.01592
G1 X43.655 Y116.356 E55.0992
G1 X43.801 Y113.778 E55.18508
G1 X43.872 Y111.252 E55.26913
G1 X43.872 Y108.717 E55.35344
G1 X43.799 Y106.179 E55.43789
G1 X43.655 Y103.63 E55.5228
G1 X43.439 Y101.109 E55.60696
G1 X43.15 Y98.56 E55.69228
G1 X42.796 Y96.081 E55.77557
G1 X42.365 Y93.567 E55.86041
G1 X41.867 Y91.088 E55.94451
G1 X41.299 Y88.62 E56.02874
G1 X40.65 Y86.129 E56.11436
G1 X39.952 Y83.73 E56.19746
G1 X39.16 Y81.268 E56.28347
G1 X38.318 Y78.884 E56.36757
G1 X37.415 Y76.54 E56.45111
G1 X36.421 Y74.165 E56.53675
G1 X35.379 Y71.861 E56.62085
G1 X34.271 Y69.582 E56.70513
G1 X33.091 Y67.323 E56.7899
G1 X31.864 Y65.126 E56.8736
G1 X30.534 Y62.893 E56.96004
G1 X30.372 Y62.635 E56.97018
G1 X30.242 Y62.421 E56.9785
G1 X30.094 Y62.171 E56.98817
G1 X29.669 Y61.374 E57.01821
G1 X29.315 Y60.543 E57.04825
G1 X29.037 Y59.684 E57.07828
G1 X28.912 Y59.179 E57.09558
G1 X28.755 Y58.289 E57.12564
G1 X28.673 Y57.241 E57.16061
G1 X28.664 Y56.907 E57.17172
G1 X28.66 Y56.632 E57.18087
G1 X28.661 Y55.043 E57.23372
G1 X28.67 Y54.354 E57.25663
G1 X28.722 Y53.452 E57.28668
G1 X28.853 Y52.559 E57.3167
G1 X29.063 Y51.68 E57.34676
G1 X29.349 Y50.824 E57.37678
G1 X29.711 Y49.996 E57.40684
G1 X30.144 Y49.204 E57.43686
G1 X30.645 Y48.453 E57.46688
G1 X31.211 Y47.749 E57.49693
G1 X31.837 Y47.098 E57.52697
G1 X32.519 Y46.505 E57.55703
G1 X33.25 Y45.975 E57.58706
G1 F2700 E52.58706
;MESH:Body9.stl
