;FLAVOR:Marlin
;TIME:4067
;Filament used: 2.41251m
;Layer height: 0.2
;MINX:10.085
;MINY:47.159
;MINZ:0.2
;MAXX:212.804
;MAXY:181.442
;MAXZ:7
;Generated with Cura_SteamEngine 4.11.0
M140 S50
M105
M190 S50
M104 S200
M105
M109 S200
M82 ;absolute extrusion mode
; Ender 3 Custom Start G-code
G92 E0 ; Reset Extruder
G28 ; Home all axes
G1 Z2.0 F3000 ; Move Z Axis up little to prevent scratching of Heat Bed
G1 X0.1 Y20 Z0.3 F5000.0 ; Move to start position
G1 X0.1 Y200.0 Z0.3 F1500.0 E15 ; Draw the first line
G1 X0.4 Y200.0 Z0.3 F5000.0 ; Move to side a little
G1 X0.4 Y20 Z0.3 F1500.0 E30 ; Draw the second line
G92 E0 ; Reset Extruder
G1 Z2.0 F3000 ; Move Z Axis up little to prevent scratching of Heat Bed
G1 X5 Y20 Z0.3 F5000.0 ; Move over to prevent blob squish
G92 E0
G92 E0
G1 F2700 E-5
;LAYER_COUNT:35
;LAYER:0
M107
G0 F6000 X18.349 Y49.322 Z0.2
;TYPE:SKIRT
G1 F2700 E0
G1 F1200 X19.231 Y49.002 E0.03121
G1 X20.137 Y48.76 E0.0624
G1 X20.81 Y48.631 E0.08519
G1 X21.208 Y48.568 E0.09859
G1 X21.611 Y48.512 E0.11212
G1 X21.752 Y48.495 E0.11685
G1 X22.688 Y48.423 E0.14807
G1 X23.063 Y48.41 E0.16055
G1 X23.367 Y48.403 E0.17066
G1 X200.438 Y47.159 E6.06021
G1 X201.101 Y47.164 E6.08227
G1 X202.038 Y47.211 E6.11347
G1 X202.967 Y47.338 E6.14466
G1 X203.882 Y47.543 E6.17584
G1 X204.776 Y47.826 E6.20703
G1 X205.643 Y48.184 E6.23823
G1 X206.477 Y48.614 E6.26944
G1 X207.27 Y49.114 E6.30062
G1 X208.019 Y49.679 E6.33183
G1 X208.716 Y50.306 E6.36301
G1 X209.357 Y50.991 E6.39421
G1 X209.938 Y51.727 E6.4254
G1 X210.454 Y52.51 E6.45659
G1 X210.901 Y53.335 E6.4878
G1 X211.277 Y54.194 E6.51898
G1 X211.578 Y55.082 E6.55017
G1 X211.802 Y55.993 E6.58137
G1 X211.947 Y56.919 E6.61255
G1 X212.012 Y57.789 E6.64156
G1 X212.025 Y58.17 E6.65424
G1 X212.031 Y58.476 E6.66442
G1 X212.04 Y60.054 E6.71691
G1 X212.035 Y60.731 E6.73942
G1 X211.988 Y61.668 E6.77063
G1 X211.861 Y62.597 E6.80181
G1 X211.656 Y63.512 E6.833
G1 X211.374 Y64.407 E6.86421
G1 X211.016 Y65.274 E6.89541
G1 X210.443 Y66.349 E6.93593
G1 X210.146 Y66.839 E6.95498
G1 X208.781 Y69.166 E7.04471
G1 X207.583 Y71.349 E7.12754
G1 X206.44 Y73.579 E7.21088
G1 X205.353 Y75.854 E7.29474
G1 X204.319 Y78.187 E7.37962
G1 X203.365 Y80.511 E7.46317
G1 X202.487 Y82.843 E7.54605
G1 X201.666 Y85.223 E7.62979
G1 X200.91 Y87.63 E7.7137
G1 X200.221 Y90.068 E7.79796
G1 X199.615 Y92.464 E7.88016
G1 X199.054 Y94.973 E7.96568
G1 X198.582 Y97.425 E8.04873
G1 X198.176 Y99.902 E8.13221
G1 X197.835 Y102.419 E8.21669
G1 X197.574 Y104.873 E8.29877
G1 X197.376 Y107.407 E8.38331
G1 X197.252 Y109.925 E8.46716
G1 X197.198 Y112.451 E8.5512
G1 X197.215 Y114.972 E8.63505
G1 X197.303 Y117.459 E8.71782
G1 X197.464 Y119.99 E8.80217
G1 X197.694 Y122.488 E8.8856
G1 X197.997 Y124.992 E8.96949
G1 X198.371 Y127.491 E9.05354
G1 X198.814 Y129.977 E9.13752
G1 X199.32 Y132.407 E9.22008
G1 X199.9 Y134.851 E9.30362
G1 X200.561 Y137.32 E9.38864
G1 X201.268 Y139.691 E9.47093
G1 X202.07 Y142.127 E9.55623
G1 X202.91 Y144.456 E9.63857
G1 X203.849 Y146.839 E9.72376
G1 X204.821 Y149.121 E9.80626
G1 X205.885 Y151.433 E9.89091
G1 X206.989 Y153.664 E9.9737
G1 X208.177 Y155.903 E10.05801
G1 X209.416 Y158.086 E10.14149
G1 X210.747 Y160.284 E10.22696
G1 X211.01 Y160.703 E10.24341
G1 X211.174 Y160.972 E10.25389
G1 X211.628 Y161.793 E10.28509
G1 X212.01 Y162.649 E10.31627
G1 X212.318 Y163.535 E10.34747
G1 X212.549 Y164.444 E10.37866
G1 X212.701 Y165.37 E10.40987
G1 X212.775 Y166.312 E10.4413
G1 X212.787 Y166.654 E10.45268
G1 X212.794 Y166.965 E10.46303
G1 X212.804 Y168.581 E10.51678
G1 X212.8 Y169.251 E10.53906
G1 X212.754 Y170.187 E10.57023
G1 X212.629 Y171.117 E10.60144
G1 X212.425 Y172.032 E10.63262
G1 X212.144 Y172.927 E10.66382
G1 X211.788 Y173.795 E10.69503
G1 X211.359 Y174.629 E10.72622
G1 X210.86 Y175.423 E10.75741
G1 X210.296 Y176.172 E10.7886
G1 X209.67 Y176.87 E10.81978
G1 X208.986 Y177.513 E10.851
G1 X208.251 Y178.095 E10.88219
G1 X207.469 Y178.612 E10.91337
G1 X206.645 Y179.061 E10.94458
G1 X205.786 Y179.437 E10.97577
G1 X204.898 Y179.74 E11.00697
G1 X203.988 Y179.965 E11.03815
G1 X203.062 Y180.112 E11.06934
G1 X202.195 Y180.178 E11.09826
G1 X201.861 Y180.19 E11.10937
G1 X201.543 Y180.197 E11.11995
G1 X24.428 Y181.442 E17.01096
G1 X23.782 Y181.437 E17.03245
G1 X22.994 Y181.402 E17.05869
G1 X22.793 Y181.386 E17.06539
G1 X22.085 Y181.307 E17.08909
G1 X21.782 Y181.263 E17.09927
G1 X20.861 Y181.089 E17.13045
G1 X19.957 Y180.837 E17.16166
G1 X19.411 Y180.643 E17.18093
G1 X18.985 Y180.479 E17.19611
G1 X18.684 Y180.358 E17.2069
G1 X17.832 Y179.965 E17.23811
G1 X17.017 Y179.501 E17.2693
G1 X16.367 Y179.061 E17.29541
G1 X16.062 Y178.838 E17.30798
G1 X15.734 Y178.589 E17.32167
G1 X15.653 Y178.525 E17.32511
G1 X14.943 Y177.913 E17.35628
G1 X14.287 Y177.242 E17.38749
G1 X13.882 Y176.763 E17.40836
G1 X13.519 Y176.309 E17.42769
G1 X12.965 Y175.553 E17.45886
G1 X12.477 Y174.751 E17.49009
G1 X12.045 Y173.877 E17.52251
G1 X11.937 Y173.632 E17.53142
G1 X11.816 Y173.349 E17.54166
G1 X11.743 Y173.17 E17.54809
G1 X11.427 Y172.287 E17.57928
G1 X11.186 Y171.381 E17.61046
G1 X11.059 Y170.7 E17.6335
G1 X10.973 Y170.145 E17.65218
G1 X10.85 Y168.863 E17.69502
G1 X10.838 Y168.535 E17.70593
G1 X10.831 Y168.21 E17.71675
G1 X10.085 Y61.968 E21.25046
G1 X10.09 Y61.328 E21.27174
G1 X10.134 Y60.436 E21.30145
G1 X10.149 Y60.268 E21.30706
G1 X10.216 Y59.69 E21.32641
G1 X10.26 Y59.382 E21.33676
G1 X10.432 Y58.46 E21.36795
G1 X10.682 Y57.556 E21.39915
G1 X10.897 Y56.952 E21.42047
G1 X11.091 Y56.453 E21.43828
G1 X11.467 Y55.594 E21.46947
G1 X11.916 Y54.771 E21.50065
G1 X12.491 Y53.909 E21.53511
G1 X12.789 Y53.505 E21.55181
G1 X13.377 Y52.775 E21.58299
G1 X14.026 Y52.097 E21.6142
G1 X14.74 Y51.469 E21.64583
G1 X15.1 Y51.179 E21.6612
G1 X15.524 Y50.854 E21.67897
G1 X15.594 Y50.803 E21.68185
G1 X16.374 Y50.284 E21.71301
G1 X17.197 Y49.833 E21.74423
G1 X17.633 Y49.629 E21.76024
G1 X17.946 Y49.491 E21.77162
G1 X18.349 Y49.322 E21.78615
G0 F6000 X18.501 Y49.692
G1 F1200 X19.367 Y49.379 E21.81678
G1 X20.257 Y49.143 E21.8474
G1 X20.873 Y49.026 E21.86826
G1 X21.271 Y48.963 E21.88166
G1 X21.659 Y48.909 E21.89469
G1 X21.8 Y48.892 E21.89941
G1 X22.702 Y48.822 E21.9295
G1 X23.077 Y48.809 E21.94198
G1 X23.369 Y48.803 E21.9517
G1 X200.435 Y47.559 E27.84108
G1 X201.098 Y47.564 E27.86313
G1 X202.017 Y47.611 E27.89374
G1 X202.929 Y47.738 E27.92437
G1 X203.827 Y47.943 E27.955
G1 X204.703 Y48.225 E27.98561
G1 X205.552 Y48.582 E28.01624
G1 X206.366 Y49.012 E28.04686
G1 X207.14 Y49.511 E28.07749
G1 X207.868 Y50.074 E28.1081
G1 X208.544 Y50.699 E28.13872
G1 X209.163 Y51.38 E28.16933
G1 X209.721 Y52.113 E28.19997
G1 X210.213 Y52.891 E28.23059
G1 X210.636 Y53.709 E28.26122
G1 X210.987 Y54.56 E28.29183
G1 X211.262 Y55.439 E28.32247
G1 X211.459 Y56.338 E28.35308
G1 X211.579 Y57.251 E28.3837
G1 X211.612 Y57.803 E28.4021
G1 X211.625 Y58.184 E28.41478
G1 X211.631 Y58.478 E28.42456
G1 X211.64 Y60.051 E28.47688
G1 X211.635 Y60.728 E28.49939
G1 X211.588 Y61.648 E28.53003
G1 X211.462 Y62.56 E28.56065
G1 X211.257 Y63.457 E28.59126
G1 X210.974 Y64.334 E28.62191
G1 X210.617 Y65.182 E28.65251
G1 X210.101 Y66.142 E28.68876
G1 X209.778 Y66.675 E28.70949
G1 X208.444 Y68.95 E28.7972
G1 X207.227 Y71.166 E28.88129
G1 X206.081 Y73.403 E28.96489
G1 X204.984 Y75.698 E29.04949
G1 X203.955 Y78.022 E29.13403
G1 X202.996 Y80.355 E29.21792
G1 X202.111 Y82.709 E29.30157
G1 X201.278 Y85.121 E29.38644
G1 X200.529 Y87.507 E29.46962
G1 X199.843 Y89.933 E29.55347
G1 X199.215 Y92.419 E29.63875
G1 X198.664 Y94.882 E29.7227
G1 X198.187 Y97.356 E29.8065
G1 X197.778 Y99.85 E29.89056
G1 X197.443 Y102.326 E29.97366
G1 X197.173 Y104.871 E30.05878
G1 X196.976 Y107.392 E30.14289
G1 X196.852 Y109.896 E30.22627
G1 X196.798 Y112.445 E30.31107
G1 X196.815 Y114.989 E30.39569
G1 X196.903 Y117.462 E30.47799
G1 X197.068 Y120.054 E30.56438
G1 X197.293 Y122.501 E30.64611
G1 X197.602 Y125.063 E30.73194
G1 X197.975 Y127.549 E30.81555
G1 X198.416 Y130.023 E30.89913
G1 X198.933 Y132.509 E30.98358
G1 X199.518 Y134.974 E31.06785
G1 X200.167 Y137.399 E31.15134
G1 X200.89 Y139.825 E31.23554
G1 X201.69 Y142.251 E31.3205
G1 X202.549 Y144.633 E31.40472
G1 X203.467 Y146.964 E31.48805
G1 X204.461 Y149.296 E31.57236
G1 X205.507 Y151.57 E31.65561
G1 X206.65 Y153.878 E31.74127
G1 X207.818 Y156.081 E31.82421
G1 X209.077 Y158.3 E31.90906
G1 X210.401 Y160.486 E31.99407
G1 X210.669 Y160.911 E32.01078
G1 X210.833 Y161.18 E32.02126
G1 X211.277 Y161.986 E32.05186
G1 X211.65 Y162.828 E32.08249
G1 X211.949 Y163.699 E32.11312
G1 X212.171 Y164.592 E32.14373
G1 X212.314 Y165.502 E32.17437
G1 X212.375 Y166.326 E32.20185
G1 X212.387 Y166.668 E32.21323
G1 X212.394 Y166.968 E32.22321
G1 X212.404 Y168.578 E32.27676
G1 X212.4 Y169.248 E32.29904
G1 X212.354 Y170.168 E32.32968
G1 X212.229 Y171.08 E32.3603
G1 X212.025 Y171.978 E32.39093
G1 X211.745 Y172.854 E32.42151
G1 X211.389 Y173.704 E32.45217
G1 X210.96 Y174.519 E32.4828
G1 X210.463 Y175.293 E32.51339
G1 X209.9 Y176.022 E32.54403
G1 X209.277 Y176.699 E32.57463
G1 X208.596 Y177.319 E32.60526
G1 X207.865 Y177.879 E32.63589
G1 X207.088 Y178.372 E32.66649
G1 X206.271 Y178.796 E32.69711
G1 X205.42 Y179.148 E32.72774
G1 X204.542 Y179.424 E32.75835
G1 X203.643 Y179.624 E32.78898
G1 X202.73 Y179.744 E32.81961
G1 X202.181 Y179.778 E32.8379
G1 X201.847 Y179.79 E32.84902
G1 X201.541 Y179.797 E32.8592
G1 X24.431 Y181.042 E38.75005
G1 X23.785 Y181.037 E38.77153
G1 X23.026 Y181.004 E38.7968
G1 X22.825 Y180.988 E38.80351
G1 X22.143 Y180.911 E38.82634
G1 X21.84 Y180.867 E38.83652
G1 X20.935 Y180.695 E38.86716
G1 X20.049 Y180.446 E38.89777
G1 X19.555 Y180.269 E38.91522
G1 X18.914 Y180.02 E38.93809
G1 X18.836 Y179.988 E38.9409
G1 X18 Y179.602 E38.97153
G1 X17.201 Y179.145 E39.00214
G1 X16.603 Y178.738 E39.0262
G1 X16.298 Y178.515 E39.03877
G1 X15.982 Y178.275 E39.05196
G1 X15.901 Y178.211 E39.0554
G1 X15.205 Y177.61 E39.08598
G1 X14.562 Y176.95 E39.11663
G1 X14.194 Y176.514 E39.13561
G1 X13.831 Y176.06 E39.15494
G1 X13.288 Y175.316 E39.18557
G1 X12.811 Y174.529 E39.21618
G1 X12.411 Y173.716 E39.24632
G1 X12.303 Y173.471 E39.25522
G1 X12.187 Y173.198 E39.26509
G1 X12.114 Y173.019 E39.27152
G1 X11.804 Y172.152 E39.30214
G1 X11.57 Y171.262 E39.33275
G1 X11.454 Y170.639 E39.35383
G1 X11.368 Y170.084 E39.37251
G1 X11.25 Y168.849 E39.41377
G1 X11.238 Y168.521 E39.42469
G1 X11.231 Y168.208 E39.4351
G1 X10.485 Y61.971 E42.96865
G1 X10.49 Y61.331 E42.98993
G1 X10.532 Y60.471 E43.01857
G1 X10.547 Y60.303 E43.02418
G1 X10.612 Y59.747 E43.0428
G1 X10.656 Y59.439 E43.05315
G1 X10.825 Y58.534 E43.08377
G1 X11.073 Y57.647 E43.1144
G1 X11.269 Y57.097 E43.13382
G1 X11.463 Y56.598 E43.15163
G1 X11.834 Y55.755 E43.18226
G1 X12.276 Y54.948 E43.21286
G1 X12.813 Y54.147 E43.24494
G1 X13.111 Y53.743 E43.26164
G1 X13.689 Y53.026 E43.29227
G1 X14.327 Y52.363 E43.32287
G1 X14.991 Y51.78 E43.35226
G1 X15.351 Y51.49 E43.36764
G1 X15.759 Y51.178 E43.38472
G1 X15.829 Y51.127 E43.3876
G1 X16.596 Y50.617 E43.41823
G1 X17.795 Y49.995 E43.46316
G1 X18.108 Y49.857 E43.47454
G1 X18.501 Y49.692 E43.48871
G0 F6000 X18.653 Y50.062
G1 F1200 X19.503 Y49.756 E43.51876
G1 X20.376 Y49.526 E43.54879
G1 X20.935 Y49.421 E43.56771
G1 X21.333 Y49.358 E43.58111
G1 X21.707 Y49.306 E43.59367
G1 X21.848 Y49.289 E43.59839
G1 X22.716 Y49.222 E43.62735
G1 X23.091 Y49.209 E43.63983
G1 X23.372 Y49.203 E43.64917
G1 X200.432 Y47.959 E49.53836
G1 X201.095 Y47.964 E49.56041
G1 X201.997 Y48.011 E49.59045
G1 X202.891 Y48.137 E49.62048
G1 X203.771 Y48.342 E49.65053
G1 X204.629 Y48.624 E49.68057
G1 X205.458 Y48.981 E49.71059
G1 X206.253 Y49.41 E49.74064
G1 X207.007 Y49.907 E49.77068
G1 X207.714 Y50.469 E49.80071
G1 X208.368 Y51.092 E49.83076
G1 X208.965 Y51.77 E49.8608
G1 X209.499 Y52.498 E49.89083
G1 X209.967 Y53.27 E49.92086
G1 X210.365 Y54.081 E49.95091
G1 X210.69 Y54.924 E49.98096
G1 X210.938 Y55.792 E50.01098
G1 X211.109 Y56.679 E50.04103
G1 X211.212 Y57.816 E50.079
G1 X211.225 Y58.197 E50.09168
G1 X211.231 Y58.481 E50.10112
G1 X211.24 Y60.048 E50.15324
G1 X211.235 Y60.725 E50.17576
G1 X211.188 Y61.627 E50.2058
G1 X211.062 Y62.521 E50.23583
G1 X210.857 Y63.401 E50.26588
G1 X210.575 Y64.259 E50.29592
G1 X210.219 Y65.089 E50.32596
G1 X209.759 Y65.935 E50.35799
G1 X209.403 Y66.523 E50.38085
G1 X208.105 Y68.735 E50.46615
G1 X206.87 Y70.985 E50.55152
G1 X205.721 Y73.227 E50.63531
G1 X204.622 Y75.529 E50.72016
G1 X203.59 Y77.857 E50.80485
G1 X202.621 Y80.217 E50.88971
G1 X201.737 Y82.566 E50.97318
G1 X200.905 Y84.976 E51.05798
G1 X200.14 Y87.415 E51.143
G1 X199.456 Y89.832 E51.22655
G1 X198.829 Y92.312 E51.31163
G1 X198.269 Y94.816 E51.39697
G1 X197.793 Y97.287 E51.48067
G1 X197.386 Y99.768 E51.56429
G1 X197.044 Y102.297 E51.64917
G1 X196.774 Y104.834 E51.73402
G1 X196.579 Y107.34 E51.81763
G1 X196.452 Y109.904 E51.90301
G1 X196.398 Y112.439 E51.98734
G1 X196.415 Y114.971 E52.07156
G1 X196.506 Y117.538 E52.15699
G1 X196.665 Y120.042 E52.24044
G1 X196.9 Y122.588 E52.32548
G1 X197.199 Y125.064 E52.40843
G1 X197.585 Y127.641 E52.4951
G1 X198.025 Y130.11 E52.57851
G1 X198.544 Y132.604 E52.66324
G1 X199.12 Y135.032 E52.74624
G1 X199.786 Y137.521 E52.83194
G1 X200.51 Y139.949 E52.91621
G1 X201.309 Y142.375 E53.00116
G1 X202.172 Y144.767 E53.08574
G1 X203.091 Y147.1 E53.16914
G1 X204.102 Y149.471 E53.25487
G1 X205.163 Y151.779 E53.33935
G1 X206.273 Y154.021 E53.42256
G1 X207.483 Y156.301 E53.50841
G1 X208.721 Y158.484 E53.59188
G1 X210.068 Y160.708 E53.67836
G1 X210.327 Y161.119 E53.69452
G1 X210.491 Y161.388 E53.705
G1 X210.927 Y162.18 E53.73507
G1 X211.29 Y163.006 E53.76508
G1 X211.58 Y163.862 E53.79514
G1 X211.792 Y164.739 E53.82515
G1 X211.926 Y165.632 E53.85518
G1 X211.976 Y166.34 E53.87879
G1 X211.988 Y166.682 E53.89017
G1 X211.994 Y166.971 E53.89978
G1 X212.004 Y168.576 E53.95317
G1 X212 Y169.246 E53.97545
G1 X211.954 Y170.148 E54.00549
G1 X211.829 Y171.042 E54.03551
G1 X211.626 Y171.922 E54.06555
G1 X211.345 Y172.781 E54.09561
G1 X210.99 Y173.611 E54.12564
G1 X210.562 Y174.406 E54.15567
G1 X210.066 Y175.161 E54.18571
G1 X209.505 Y175.869 E54.21576
G1 X208.884 Y176.524 E54.24578
G1 X208.207 Y177.122 E54.27582
G1 X207.48 Y177.657 E54.30584
G1 X206.708 Y178.127 E54.3359
G1 X205.898 Y178.526 E54.36594
G1 X205.056 Y178.851 E54.39595
G1 X204.188 Y179.102 E54.42601
G1 X203.301 Y179.274 E54.45606
G1 X202.166 Y179.378 E54.49397
G1 X201.832 Y179.39 E54.50508
G1 X201.538 Y179.397 E54.51486
G1 X24.434 Y180.642 E60.40551
G1 X23.788 Y180.637 E60.427
G1 X23.058 Y180.605 E60.4513
G1 X22.857 Y180.589 E60.45801
G1 X22.2 Y180.515 E60.48
G1 X21.897 Y180.471 E60.49018
G1 X21.01 Y180.302 E60.52021
G1 X20.141 Y180.055 E60.55026
G1 X19.698 Y179.896 E60.56592
G1 X19.272 Y179.732 E60.5811
G1 X18.988 Y179.618 E60.59128
G1 X18.168 Y179.238 E60.62134
G1 X17.385 Y178.788 E60.65137
G1 X16.839 Y178.415 E60.67337
G1 X16.534 Y178.192 E60.68593
G1 X16.23 Y177.961 E60.69863
G1 X16.149 Y177.897 E60.70207
G1 X15.466 Y177.307 E60.73209
G1 X14.838 Y176.658 E60.76212
G1 X14.506 Y176.264 E60.77926
G1 X14.143 Y175.81 E60.79859
G1 X13.611 Y175.08 E60.82864
G1 X13.146 Y174.306 E60.85867
G1 X12.777 Y173.554 E60.88653
G1 X12.669 Y173.309 E60.89543
G1 X12.557 Y173.047 E60.90491
G1 X12.484 Y172.868 E60.91134
G1 X12.181 Y172.017 E60.94139
G1 X11.953 Y171.143 E60.97143
G1 X11.849 Y170.578 E60.99054
G1 X11.763 Y170.023 E61.00922
G1 X11.65 Y168.834 E61.04894
G1 X11.638 Y168.506 E61.05986
G1 X11.631 Y168.205 E61.06987
G1 X10.885 Y61.974 E64.60321
G1 X10.89 Y61.334 E64.6245
G1 X10.93 Y60.507 E64.65204
G1 X10.945 Y60.339 E64.65765
G1 X11.008 Y59.804 E64.67557
G1 X11.052 Y59.496 E64.68592
G1 X11.219 Y58.608 E64.71597
G1 X11.464 Y57.739 E64.746
G1 X11.642 Y57.242 E64.76356
G1 X11.836 Y56.743 E64.78136
G1 X12.2 Y55.917 E64.81139
G1 X12.636 Y55.126 E64.84143
G1 X13.134 Y54.384 E64.87115
G1 X13.432 Y53.98 E64.88785
G1 X14 Y53.278 E64.91788
G1 X14.628 Y52.629 E64.94792
G1 X15.242 Y52.092 E64.97505
G1 X15.602 Y51.802 E64.99042
G1 X15.995 Y51.501 E65.00689
G1 X16.065 Y51.45 E65.00977
G1 X16.817 Y50.951 E65.03978
G1 X17.956 Y50.361 E65.08245
G1 X18.269 Y50.223 E65.09383
G1 X18.653 Y50.062 E65.10768
G1 F2700 E60.10768
;MESH:Body6.stl
G0 F6000 X20.842 Y59.974
