;FLAVOR:Marlin
;TIME:17319
;Filament used: 11.4155m
;Layer height: 0.2
;MINX:13.72
;MINY:40.978
;MINZ:0.2
;MAXX:206.28
;MAXY:179.022
;MAXZ:8.4
;Generated with Cura_SteamEngine 4.11.0
M140 S50
M105
M190 S50
M104 S200
M105
M109 S200
M82 ;absolute extrusion mode
; Ender 3 Custom Start G-code
G92 E0 ; Reset Extruder
G28 ; Home all axes
G1 Z2.0 F3000 ; Move Z Axis up little to prevent scratching of Heat Bed
G1 X0.1 Y20 Z0.3 F5000.0 ; Move to start position
G1 X0.1 Y200.0 Z0.3 F1500.0 E15 ; Draw the first line
G1 X0.4 Y200.0 Z0.3 F5000.0 ; Move to side a little
G1 X0.4 Y20 Z0.3 F1500.0 E30 ; Draw the second line
G92 E0 ; Reset Extruder
G1 Z2.0 F3000 ; Move Z Axis up little to prevent scratching of Heat Bed
G1 X5 Y20 Z0.3 F5000.0 ; Move over to prevent blob squish
G92 E0
G92 E0
G1 F2700 E-5
;LAYER_COUNT:43
;LAYER:0
M107
G0 F6000 X20.748 Y42.453 Z0.2
;TYPE:SKIRT
G1 F2700 E0
G1 F1200 X21.329 Y42.181 E0.02134
G1 X21.826 Y41.966 E0.03935
G1 X22.701 Y41.631 E0.07051
G1 X23.603 Y41.371 E0.10173
G1 X24.577 Y41.181 E0.13474
G1 X24.954 Y41.125 E0.14742
G1 X25.409 Y41.067 E0.16267
G1 X25.588 Y41.048 E0.16866
G1 X26.39 Y40.993 E0.1954
G1 X26.635 Y40.985 E0.20355
G1 X26.994 Y40.979 E0.21549
G1 X194.573 Y40.978 E5.78919
G1 X195.429 Y40.989 E5.81766
G1 X196.365 Y41.043 E5.84885
G1 X197.293 Y41.175 E5.88002
G1 X198.207 Y41.387 E5.91123
G1 X199.099 Y41.676 E5.94242
G1 X199.964 Y42.039 E5.97362
G1 X200.794 Y42.475 E6.0048
G1 X201.585 Y42.98 E6.03601
G1 X202.329 Y43.551 E6.06721
G1 X203.022 Y44.183 E6.0984
G1 X203.659 Y44.871 E6.12959
G1 X204.234 Y45.612 E6.16078
G1 X204.745 Y46.398 E6.19196
G1 X205.187 Y47.226 E6.22318
G1 X205.556 Y48.088 E6.25437
G1 X205.851 Y48.978 E6.28555
G1 X206.069 Y49.89 E6.31674
G1 X206.209 Y50.818 E6.34796
G1 X206.266 Y51.673 E6.37646
G1 X206.275 Y51.987 E6.3869
G1 X206.28 Y52.302 E6.39738
G1 X206.279 Y69.05 E6.95442
G1 X206.257 Y70.605 E7.00615
G1 X206.257 Y73.244 E7.09392
G1 X206.276 Y74.112 E7.1228
G1 X206.279 Y74.352 E7.13078
G1 X206.279 Y83.399 E7.43169
G1 X206.269 Y84.104 E7.45514
G1 X206.255 Y84.538 E7.46958
G1 X206.111 Y87.08 E7.55426
G1 X206.039 Y89.64 E7.63944
G1 X206.039 Y92.129 E7.72223
G1 X206.113 Y94.73 E7.80877
G1 X206.177 Y96.016 E7.8516
G1 X206.252 Y97.316 E7.89491
G1 X206.265 Y97.617 E7.90493
G1 X206.275 Y97.947 E7.91591
G1 X206.28 Y98.28 E7.92698
G1 X206.279 Y102.449 E8.06565
G1 X206.269 Y103.154 E8.0891
G1 X206.255 Y103.588 E8.10354
G1 X206.111 Y106.13 E8.18822
G1 X206.039 Y108.69 E8.2734
G1 X206.039 Y111.179 E8.35619
G1 X206.113 Y113.78 E8.44273
G1 X206.177 Y115.066 E8.48556
G1 X206.252 Y116.366 E8.52887
G1 X206.265 Y116.667 E8.53889
G1 X206.275 Y116.997 E8.54987
G1 X206.28 Y117.33 E8.56094
G1 X206.279 Y140.549 E9.33321
G1 X206.269 Y141.254 E9.35666
G1 X206.255 Y141.688 E9.3711
G1 X206.111 Y144.23 E9.45579
G1 X206.039 Y146.79 E9.54097
G1 X206.039 Y149.279 E9.62375
G1 X206.113 Y151.88 E9.7103
G1 X206.177 Y153.166 E9.75312
G1 X206.252 Y154.466 E9.79643
G1 X206.265 Y154.767 E9.80645
G1 X206.275 Y155.097 E9.81743
G1 X206.28 Y155.43 E9.82851
G1 X206.279 Y167.422 E10.22737
G1 X206.27 Y168.149 E10.25155
G1 X206.219 Y169.086 E10.28276
G1 X206.087 Y170.014 E10.31393
G1 X205.878 Y170.928 E10.34512
G1 X205.591 Y171.821 E10.37632
G1 X205.229 Y172.687 E10.40753
G1 X204.795 Y173.518 E10.43872
G1 X204.291 Y174.309 E10.46991
G1 X203.722 Y175.054 E10.50109
G1 X203.091 Y175.749 E10.53231
G1 X202.404 Y176.387 E10.5635
G1 X201.665 Y176.964 E10.59468
G1 X200.879 Y177.476 E10.62588
G1 X200.053 Y177.919 E10.65705
G1 X199.191 Y178.291 E10.68828
G1 X198.302 Y178.587 E10.71944
G1 X197.39 Y178.807 E10.75065
G1 X196.463 Y178.948 E10.78183
G1 X195.579 Y179.009 E10.81131
G1 X195.258 Y179.018 E10.82199
G1 X194.95 Y179.022 E10.83223
G1 X27.252 Y179.02 E16.40989
G1 X26.53 Y179.009 E16.43391
G1 X25.578 Y178.953 E16.46563
G1 X25.451 Y178.94 E16.46987
G1 X24.976 Y178.881 E16.48579
G1 X24.628 Y178.83 E16.49749
G1 X23.707 Y178.654 E16.52868
G1 X22.804 Y178.401 E16.55987
G1 X22.187 Y178.179 E16.58168
G1 X21.794 Y178.024 E16.59573
G1 X21.438 Y177.877 E16.60854
G1 X20.592 Y177.472 E16.63973
G1 X19.783 Y176.997 E16.67094
G1 X19.145 Y176.552 E16.69681
G1 X18.706 Y176.222 E16.71507
G1 X17.981 Y175.627 E16.74627
G1 X17.31 Y174.972 E16.77746
G1 X16.706 Y174.275 E16.80813
G1 X16.512 Y174.031 E16.8185
G1 X16.263 Y173.706 E16.83212
G1 X16.157 Y173.562 E16.83807
G1 X15.634 Y172.784 E16.86924
G1 X15.179 Y171.964 E16.90044
G1 X14.919 Y171.407 E16.92088
G1 X14.708 Y170.919 E16.93856
G1 X14.373 Y170.043 E16.96976
G1 X14.114 Y169.141 E17.00097
G1 X13.926 Y168.177 E17.03364
G1 X13.866 Y167.775 E17.04716
G1 X13.816 Y167.402 E17.05967
G1 X13.801 Y167.271 E17.06406
G1 X13.735 Y166.348 E17.09484
G1 X13.723 Y165.868 E17.11081
G1 X13.72 Y165.562 E17.12098
G1 X13.722 Y54.522 E20.81419
G1 X13.732 Y53.817 E20.83764
G1 X13.781 Y52.926 E20.86732
G1 X13.794 Y52.79 E20.87186
G1 X13.864 Y52.217 E20.89106
G1 X13.917 Y51.861 E20.90303
G1 X14.094 Y50.94 E20.93423
G1 X14.35 Y50.038 E20.96541
G1 X14.559 Y49.458 E20.98592
G1 X14.726 Y49.033 E21.00111
G1 X14.961 Y48.48 E21.02109
G1 X15.383 Y47.643 E21.05227
G1 X15.876 Y46.845 E21.08347
G1 X16.149 Y46.459 E21.09919
G1 X16.428 Y46.083 E21.11476
G1 X16.71 Y45.719 E21.13008
G1 X17.326 Y45.011 E21.16129
G1 X17.999 Y44.358 E21.19248
G1 X18.478 Y43.955 E21.2133
G1 X18.734 Y43.752 E21.22417
G1 X19.025 Y43.529 E21.23636
G1 X19.152 Y43.435 E21.24162
G1 X19.929 Y42.91 E21.27281
G1 X20.748 Y42.453 E21.304
G0 F6000 X20.958 Y42.795
G1 F1200 X21.487 Y42.548 E21.32342
G1 X21.984 Y42.333 E21.34143
G1 X22.844 Y42.005 E21.37204
G1 X23.73 Y41.752 E21.40269
G1 X24.636 Y41.577 E21.43338
G1 X25.013 Y41.521 E21.44606
G1 X25.451 Y41.465 E21.46074
G1 X25.63 Y41.446 E21.46673
G1 X26.403 Y41.393 E21.4925
G1 X26.648 Y41.385 E21.50065
G1 X26.994 Y41.379 E21.51216
G1 X194.573 Y41.378 E27.08586
G1 X195.423 Y41.389 E27.11414
G1 X196.342 Y41.442 E27.14475
G1 X197.253 Y41.575 E27.17537
G1 X198.149 Y41.786 E27.20599
G1 X199.023 Y42.074 E27.2366
G1 X199.87 Y42.437 E27.26725
G1 X200.681 Y42.872 E27.29786
G1 X201.451 Y43.376 E27.32846
G1 X202.175 Y43.945 E27.35909
G1 X202.847 Y44.575 E27.38973
G1 X203.462 Y45.26 E27.42035
G1 X204.015 Y45.996 E27.45097
G1 X204.502 Y46.777 E27.48158
G1 X204.919 Y47.598 E27.51221
G1 X205.264 Y48.452 E27.54284
G1 X205.533 Y49.332 E27.57345
G1 X205.725 Y50.233 E27.60409
G1 X205.838 Y51.146 E27.63468
G1 X205.867 Y51.684 E27.6526
G1 X205.876 Y51.998 E27.66305
G1 X205.88 Y52.302 E27.67316
G1 X205.879 Y69.044 E28.23001
G1 X205.857 Y70.599 E28.28173
G1 X205.857 Y73.253 E28.37
G1 X205.876 Y74.121 E28.39888
G1 X205.879 Y74.352 E28.40656
G1 X205.879 Y83.393 E28.70727
G1 X205.869 Y84.098 E28.73072
G1 X205.855 Y84.52 E28.74476
G1 X205.711 Y87.081 E28.83008
G1 X205.639 Y89.629 E28.91486
G1 X205.639 Y92.14 E28.99837
G1 X205.712 Y94.715 E29.08405
G1 X205.782 Y96.122 E29.13091
G1 X205.852 Y97.339 E29.17145
G1 X205.865 Y97.629 E29.18111
G1 X205.875 Y97.959 E29.19209
G1 X205.88 Y98.28 E29.20276
G1 X205.879 Y102.443 E29.34123
G1 X205.869 Y103.148 E29.36468
G1 X205.855 Y103.57 E29.37872
G1 X205.711 Y106.131 E29.46403
G1 X205.639 Y108.679 E29.54882
G1 X205.639 Y111.19 E29.63233
G1 X205.712 Y113.765 E29.71801
G1 X205.782 Y115.172 E29.76487
G1 X205.852 Y116.389 E29.80541
G1 X205.865 Y116.679 E29.81507
G1 X205.875 Y117.009 E29.82605
G1 X205.88 Y117.33 E29.83672
G1 X205.879 Y140.543 E30.60879
G1 X205.869 Y141.248 E30.63224
G1 X205.855 Y141.67 E30.64629
G1 X205.711 Y144.231 E30.7316
G1 X205.639 Y146.779 E30.81638
G1 X205.639 Y149.29 E30.8999
G1 X205.712 Y151.865 E30.98558
G1 X205.782 Y153.272 E31.03243
G1 X205.852 Y154.489 E31.07298
G1 X205.865 Y154.779 E31.08263
G1 X205.875 Y155.109 E31.09361
G1 X205.88 Y155.43 E31.10429
G1 X205.879 Y167.417 E31.50298
G1 X205.87 Y168.144 E31.52716
G1 X205.819 Y169.063 E31.55777
G1 X205.688 Y169.975 E31.58842
G1 X205.478 Y170.871 E31.61903
G1 X205.192 Y171.746 E31.64964
G1 X204.831 Y172.593 E31.68027
G1 X204.397 Y173.405 E31.71089
G1 X203.895 Y174.177 E31.74152
G1 X203.327 Y174.902 E31.77215
G1 X202.699 Y175.575 E31.80277
G1 X202.015 Y176.191 E31.83338
G1 X201.28 Y176.745 E31.864
G1 X200.5 Y177.234 E31.89461
G1 X199.68 Y177.653 E31.92524
G1 X198.827 Y177.999 E31.95586
G1 X197.947 Y178.27 E31.98648
G1 X197.047 Y178.463 E32.0171
G1 X196.133 Y178.578 E32.04774
G1 X195.568 Y178.609 E32.06656
G1 X195.247 Y178.618 E32.07724
G1 X194.95 Y178.622 E32.08712
G1 X27.259 Y178.62 E37.66454
G1 X26.537 Y178.609 E37.68856
G1 X25.619 Y178.555 E37.71915
G1 X25.492 Y178.542 E37.72339
G1 X25.034 Y178.485 E37.73874
G1 X24.686 Y178.434 E37.75044
G1 X23.782 Y178.261 E37.78105
G1 X22.896 Y178.01 E37.81168
G1 X22.334 Y177.807 E37.83156
G1 X21.941 Y177.652 E37.84561
G1 X21.595 Y177.509 E37.85806
G1 X20.765 Y177.111 E37.88867
G1 X19.972 Y176.643 E37.9193
G1 X19.386 Y176.232 E37.94311
G1 X18.947 Y175.902 E37.96137
G1 X18.236 Y175.317 E37.992
G1 X17.578 Y174.673 E38.02262
G1 X17.019 Y174.026 E38.05106
G1 X16.825 Y173.782 E38.06143
G1 X16.585 Y173.469 E38.07455
G1 X16.479 Y173.325 E38.08049
G1 X15.966 Y172.56 E38.11113
G1 X15.522 Y171.754 E38.14173
G1 X15.287 Y171.248 E38.16029
G1 X15.076 Y170.76 E38.17797
G1 X14.747 Y169.9 E38.2086
G1 X14.495 Y169.014 E38.23924
G1 X14.321 Y168.118 E38.26959
G1 X14.261 Y167.716 E38.28311
G1 X14.214 Y167.357 E38.29515
G1 X14.199 Y167.226 E38.29954
G1 X14.135 Y166.336 E38.32922
G1 X14.123 Y165.864 E38.34492
G1 X14.12 Y165.562 E38.35497
G1 X14.122 Y54.528 E42.04797
G1 X14.132 Y53.823 E42.07142
G1 X14.179 Y52.964 E42.10004
G1 X14.192 Y52.828 E42.10458
G1 X14.26 Y52.276 E42.12308
G1 X14.313 Y51.92 E42.13505
G1 X14.488 Y51.016 E42.16568
G1 X14.74 Y50.131 E42.19628
G1 X14.931 Y49.604 E42.21492
G1 X15.098 Y49.179 E42.23011
G1 X15.325 Y48.645 E42.24941
G1 X15.741 Y47.823 E42.28005
G1 X16.471 Y46.698 E42.32466
G1 X16.75 Y46.322 E42.34023
G1 X17.023 Y45.968 E42.3551
G1 X17.628 Y45.274 E42.38572
G1 X18.29 Y44.634 E42.41635
G1 X18.727 Y44.268 E42.43531
G1 X18.983 Y44.065 E42.44617
G1 X19.263 Y43.851 E42.45789
G1 X19.39 Y43.757 E42.46315
G1 X20.153 Y43.242 E42.49377
G1 X20.958 Y42.795 E42.52439
G0 F6000 X21.167 Y43.137
G1 F1200 X21.646 Y42.915 E42.54195
G1 X22.143 Y42.7 E42.55996
G1 X22.987 Y42.379 E42.58999
G1 X23.856 Y42.133 E42.62003
G1 X24.694 Y41.973 E42.64841
G1 X25.071 Y41.917 E42.66109
G1 X25.493 Y41.863 E42.67524
G1 X25.672 Y41.844 E42.68122
G1 X26.416 Y41.792 E42.70603
G1 X26.661 Y41.784 E42.71418
G1 X26.994 Y41.779 E42.72526
G1 X194.573 Y41.778 E48.29896
G1 X195.417 Y41.789 E48.32703
G1 X196.319 Y41.842 E48.35709
G1 X197.212 Y41.974 E48.38711
G1 X198.09 Y42.185 E48.41714
G1 X198.946 Y42.473 E48.44718
G1 X199.773 Y42.835 E48.47721
G1 X200.565 Y43.27 E48.50726
G1 X201.316 Y43.772 E48.53731
G1 X202.019 Y44.339 E48.56735
G1 X202.669 Y44.966 E48.59738
G1 X203.261 Y45.648 E48.62742
G1 X203.791 Y46.379 E48.65745
G1 X204.253 Y47.155 E48.68749
G1 X204.646 Y47.968 E48.71752
G1 X204.964 Y48.813 E48.74755
G1 X205.207 Y49.683 E48.7776
G1 X205.372 Y50.571 E48.80764
G1 X205.467 Y51.696 E48.84519
G1 X205.476 Y52.01 E48.85564
G1 X205.48 Y52.302 E48.86535
G1 X205.479 Y69.038 E49.42199
G1 X205.457 Y70.593 E49.47372
G1 X205.457 Y73.216 E49.56096
G1 X205.477 Y74.13 E49.59136
G1 X205.479 Y74.352 E49.59875
G1 X205.479 Y83.388 E49.89929
G1 X205.469 Y84.093 E49.92274
G1 X205.456 Y84.503 E49.93638
G1 X205.311 Y87.084 E50.02236
G1 X205.239 Y89.617 E50.10664
G1 X205.239 Y92.151 E50.19092
G1 X205.312 Y94.747 E50.2773
G1 X205.378 Y96.063 E50.32113
G1 X205.453 Y97.363 E50.36444
G1 X205.465 Y97.641 E50.37369
G1 X205.475 Y97.971 E50.38467
G1 X205.48 Y98.28 E50.39495
G1 X205.479 Y102.438 E50.53325
G1 X205.469 Y103.143 E50.5567
G1 X205.456 Y103.553 E50.57034
G1 X205.311 Y106.134 E50.65632
G1 X205.239 Y108.667 E50.7406
G1 X205.239 Y111.201 E50.82488
G1 X205.312 Y113.797 E50.91126
G1 X205.378 Y115.113 E50.95509
G1 X205.453 Y116.413 E50.9984
G1 X205.465 Y116.691 E51.00765
G1 X205.475 Y117.021 E51.01863
G1 X205.48 Y117.33 E51.02891
G1 X205.479 Y140.538 E51.80081
G1 X205.469 Y141.243 E51.82426
G1 X205.456 Y141.653 E51.83791
G1 X205.311 Y144.234 E51.92389
G1 X205.239 Y146.767 E52.00817
G1 X205.239 Y149.301 E52.09245
G1 X205.312 Y151.897 E52.17883
G1 X205.378 Y153.213 E52.22265
G1 X205.453 Y154.513 E52.26596
G1 X205.465 Y154.791 E52.27522
G1 X205.475 Y155.121 E52.2862
G1 X205.48 Y155.43 E52.29648
G1 X205.479 Y167.412 E52.695
G1 X205.47 Y168.139 E52.71918
G1 X205.419 Y169.041 E52.74923
G1 X205.288 Y169.935 E52.77928
G1 X205.079 Y170.813 E52.8093
G1 X204.793 Y171.67 E52.83935
G1 X204.432 Y172.498 E52.86939
G1 X204 Y173.29 E52.8994
G1 X203.499 Y174.042 E52.92945
G1 X202.933 Y174.746 E52.9595
G1 X202.308 Y175.397 E52.98951
G1 X201.627 Y175.991 E53.01957
G1 X200.896 Y176.522 E53.04962
G1 X200.122 Y176.986 E53.07963
G1 X199.309 Y177.38 E53.10968
G1 X198.465 Y177.7 E53.1397
G1 X197.595 Y177.945 E53.16977
G1 X196.708 Y178.111 E53.19978
G1 X195.557 Y178.209 E53.2382
G1 X195.236 Y178.218 E53.24888
G1 X194.95 Y178.222 E53.2584
G1 X27.265 Y178.22 E58.83562
G1 X26.543 Y178.209 E58.85964
G1 X25.659 Y178.157 E58.88909
G1 X25.532 Y178.144 E58.89334
G1 X25.092 Y178.089 E58.90808
G1 X24.744 Y178.038 E58.91978
G1 X23.857 Y177.868 E58.94982
G1 X22.989 Y177.62 E58.97985
G1 X22.481 Y177.435 E58.99783
G1 X22.088 Y177.28 E59.01188
G1 X21.752 Y177.141 E59.02397
G1 X20.938 Y176.75 E59.05401
G1 X20.162 Y176.289 E59.08403
G1 X19.626 Y175.912 E59.10582
G1 X19.187 Y175.582 E59.12409
G1 X18.49 Y175.008 E59.15412
G1 X17.846 Y174.375 E59.18416
G1 X17.332 Y173.777 E59.21038
G1 X17.138 Y173.533 E59.22075
G1 X16.908 Y173.232 E59.23335
G1 X16.802 Y173.088 E59.2393
G1 X16.299 Y172.337 E59.26936
G1 X15.865 Y171.546 E59.29937
G1 X15.654 Y171.089 E59.31611
G1 X15.443 Y170.601 E59.3338
G1 X15.121 Y169.757 E59.36384
G1 X14.876 Y168.888 E59.39387
G1 X14.717 Y168.059 E59.42195
G1 X14.657 Y167.657 E59.43546
G1 X14.611 Y167.311 E59.44707
G1 X14.596 Y167.18 E59.45146
G1 X14.535 Y166.324 E59.48
G1 X14.523 Y165.859 E59.49547
G1 X14.52 Y165.562 E59.50535
G1 X14.522 Y54.533 E63.19819
G1 X14.532 Y53.828 E63.22164
G1 X14.577 Y53.002 E63.24916
G1 X14.59 Y52.866 E63.2537
G1 X14.655 Y52.335 E63.27149
G1 X14.708 Y51.979 E63.28346
G1 X14.881 Y51.093 E63.31349
G1 X15.131 Y50.225 E63.34353
G1 X15.304 Y49.751 E63.36032
G1 X15.471 Y49.326 E63.3755
G1 X15.69 Y48.81 E63.39415
G1 X16.098 Y48.004 E63.42419
G1 X16.792 Y46.936 E63.46656
G1 X17.071 Y46.56 E63.48213
G1 X17.336 Y46.217 E63.49655
G1 X17.93 Y45.537 E63.52658
G1 X18.581 Y44.911 E63.55661
G1 X18.975 Y44.582 E63.57369
G1 X19.231 Y44.379 E63.58455
G1 X19.501 Y44.172 E63.59587
G1 X19.628 Y44.078 E63.60112
G1 X20.377 Y43.574 E63.63115
G1 X21.167 Y43.137 E63.66118
G1 F2700 E58.66118
;MESH:Body7.stl
G0 F6000 X39.487 Y65.565
G0 X39.487 Y64.13
G0 X50.351 Y64.572
G0 X50.623 Y79.5
;TYPE:WALL-INNER
G1 F2700 E63.66118
G1 F1200 X50.623 Y64.3 E64.16673
G1 X35.423 Y64.3 E64.67229
G1 X35.423 Y79.5 E65.17784
G1 X50.623 Y79.5 E65.6834
G0 F6000 X50.223 Y79.1
;TYPE:WALL-OUTER
G1 F1200 X50.223 Y64.7 E66.16234
G1 X35.823 Y64.7 E66.64129
G1 X35.823 Y79.1 E67.12023
G1 X50.223 Y79.1 E67.59918
G1 F2700 E62.59918
G0 F6000 X50.423 Y79.1
G0 X50.813 Y79.5
G0 X49.37 Y78.247
G0 X58.108 Y78.247
G0 X56.665 Y79.5
G0 X72.055 Y79.5
;TYPE:WALL-INNER
G1 F2700 E67.59918
G1 F1200 X72.055 Y64.3 E68.10473
G1 X56.855 Y64.3 E68.61029
G1 X56.855 Y79.5 E69.11584
G1 X72.055 Y79.5 E69.6214
G0 F6000 X71.655 Y79.1
;TYPE:WALL-OUTER
G1 F1200 X71.655 Y64.7 E70.10034
G1 X57.255 Y64.7 E70.57929
G1 X57.255 Y79.1 E71.05823
G1 X71.655 Y79.1 E71.53718
G1 F2700 E66.53718
G0 F6000 X71.855 Y79.1
G0 X72.245 Y79.5
G0 X70.802 Y78.247
G0 X79.539 Y78.247
G0 X78.096 Y79.5
G0 X93.486 Y79.5
;TYPE:WALL-INNER
G1 F2700 E71.53718
G1 F1200 X93.486 Y64.3 E72.04273
G1 X78.286 Y64.3 E72.54829
G1 X78.286 Y79.5 E73.05384
G1 X93.486 Y79.5 E73.5594
G0 F6000 X93.086 Y79.1
;TYPE:WALL-OUTER
G1 F1200 X93.086 Y64.7 E74.03834
G1 X78.686 Y64.7 E74.51729
G1 X78.686 Y79.1 E74.99623
G1 X93.086 Y79.1 E75.47518
G1 F2700 E70.47518
G0 F6000 X93.286 Y79.1
G0 X91.559 Y79.67
G0 X91.559 Y78.235
G0 X96.161 Y87.384
G0 X96.208 Y97.297
G0 X101.179 Y97.36
G0 X105.686 Y106.319
G0 X105.733 Y116.347
G0 X110.761 Y116.41
G0 X119.972 Y134.72
