;FLAVOR:Marlin
;TIME:17479
;Filament used: 11.8876m
;Layer height: 0.2
;MINX:19.801
;MINY:39.844
;MINZ:0.2
;MAXX:200.169
;MAXY:180.189
;MAXZ:8.4
;Generated with Cura_SteamEngine 4.11.0
M140 S50
M105
M190 S50
M104 S200
M105
M109 S200
M82 ;absolute extrusion mode
; Ender 3 Custom Start G-code
G92 E0 ; Reset Extruder
G28 ; Home all axes
G1 Z2.0 F3000 ; Move Z Axis up little to prevent scratching of Heat Bed
G1 X0.1 Y20 Z0.3 F5000.0 ; Move to start position
G1 X0.1 Y200.0 Z0.3 F1500.0 E15 ; Draw the first line
G1 X0.4 Y200.0 Z0.3 F5000.0 ; Move to side a little
G1 X0.4 Y20 Z0.3 F1500.0 E30 ; Draw the second line
G92 E0 ; Reset Extruder
G1 Z2.0 F3000 ; Move Z Axis up little to prevent scratching of Heat Bed
G1 X5 Y20 Z0.3 F5000.0 ; Move over to prevent blob squish
G92 E0
G92 E0
G1 F2700 E-5
;LAYER_COUNT:43
;LAYER:0
M107
G0 F6000 X25.091 Y43.774 Z0.2
;TYPE:SKIRT
G1 F2700 E0
G1 F1200 X25.913 Y43.322 E0.0312
G1 X26.77 Y42.941 E0.06239
G1 X27.656 Y42.635 E0.09357
G1 X28.566 Y42.406 E0.12478
G1 X29.491 Y42.254 E0.15596
G1 X30.395 Y42.183 E0.18612
G1 X30.693 Y42.172 E0.19604
G1 X30.933 Y42.166 E0.20402
G1 X184.605 Y39.845 E5.31576
G1 X185.466 Y39.844 E5.34439
G1 X186.322 Y39.877 E5.37289
G1 X186.463 Y39.888 E5.37759
G1 X187.057 Y39.951 E5.39746
G1 X187.403 Y39.997 E5.40907
G1 X188.326 Y40.16 E5.44024
G1 X189.233 Y40.401 E5.47145
G1 X189.844 Y40.612 E5.49295
G1 X190.32 Y40.792 E5.50988
G1 X191.182 Y41.161 E5.54107
G1 X192.01 Y41.602 E5.57227
G1 X192.901 Y42.187 E5.60772
G1 X193.338 Y42.505 E5.6257
G1 X194.072 Y43.088 E5.65687
G1 X194.754 Y43.732 E5.68807
G1 X195.382 Y44.437 E5.71947
G1 X195.624 Y44.733 E5.73219
G1 X195.894 Y45.075 E5.74668
G1 X196.433 Y45.843 E5.77789
G1 X196.905 Y46.653 E5.80907
G1 X197.19 Y47.236 E5.83065
G1 X197.418 Y47.739 E5.84902
G1 X197.768 Y48.609 E5.88021
G1 X198.043 Y49.505 E5.91138
G1 X198.255 Y50.504 E5.94535
G1 X198.309 Y50.834 E5.95647
G1 X198.378 Y51.317 E5.9727
G1 X198.466 Y52.276 E6.00473
G1 X198.487 Y52.753 E6.02061
G1 X198.495 Y53.07 E6.03116
G1 X200.168 Y163.98 E9.72046
G1 X200.169 Y164.839 E9.74903
G1 X200.133 Y165.723 E9.77846
G1 X200.123 Y165.847 E9.78259
G1 X200.065 Y166.402 E9.80115
G1 X200.015 Y166.781 E9.81387
G1 X199.852 Y167.704 E9.84504
G1 X199.612 Y168.611 E9.87625
G1 X199.402 Y169.221 E9.89771
G1 X199.278 Y169.55 E9.9094
G1 X199.148 Y169.879 E9.92117
G1 X199.095 Y170.007 E9.92577
G1 X198.7 Y170.858 E9.95698
G1 X198.233 Y171.671 E9.98816
G1 X197.86 Y172.224 E10.01035
G1 X197.552 Y172.652 E10.02789
G1 X197.059 Y173.287 E10.05462
G1 X196.429 Y173.981 E10.0858
G1 X195.578 Y174.755 E10.12406
G1 X195.335 Y174.954 E10.13451
G1 X195.073 Y175.163 E10.14565
G1 X194.93 Y175.273 E10.15165
G1 X194.163 Y175.812 E10.18283
G1 X193.352 Y176.285 E10.21406
G1 X192.766 Y176.572 E10.23576
G1 X192.347 Y176.762 E10.25106
G1 X192.016 Y176.906 E10.26307
G1 X191.137 Y177.233 E10.29426
G1 X190.233 Y177.483 E10.32546
G1 X189.527 Y177.623 E10.3494
G1 X189.094 Y177.694 E10.36399
G1 X188.728 Y177.748 E10.3763
G1 X188.62 Y177.762 E10.37992
G1 X187.709 Y177.842 E10.41034
G1 X187.381 Y177.857 E10.42126
G1 X187.044 Y177.867 E10.43247
G1 X33.251 Y180.188 E15.54823
G1 X32.566 Y180.189 E15.57101
G1 X31.629 Y180.15 E15.6022
G1 X30.699 Y180.032 E15.63338
G1 X29.782 Y179.835 E15.66458
G1 X28.885 Y179.56 E15.69578
G1 X28.015 Y179.211 E15.72696
G1 X27.178 Y178.788 E15.75815
G1 X26.379 Y178.295 E15.78938
G1 X25.626 Y177.737 E15.82055
G1 X24.923 Y177.116 E15.85175
G1 X24.276 Y176.437 E15.88294
G1 X23.688 Y175.706 E15.91415
G1 X23.165 Y174.927 E15.94535
G1 X22.711 Y174.107 E15.97653
G1 X22.328 Y173.251 E16.00772
G1 X22.019 Y172.366 E16.0389
G1 X21.786 Y171.457 E16.07011
G1 X21.632 Y170.532 E16.1013
G1 X21.56 Y169.664 E16.13027
G1 X21.546 Y169.34 E16.14105
G1 X21.537 Y169.031 E16.15133
G1 X21.357 Y157.137 E16.54698
G1 X21.356 Y156.277 E16.57558
G1 X21.365 Y155.828 E16.59052
G1 X21.469 Y153.277 E16.67543
G1 X21.503 Y150.753 E16.75939
G1 X21.465 Y148.252 E16.84258
G1 X21.354 Y145.686 E16.92801
G1 X21.261 Y144.261 E16.9755
G1 X21.173 Y143.055 E17.01572
G1 X21.155 Y142.757 E17.02565
G1 X21.141 Y142.45 E17.03587
G1 X21.131 Y142.115 E17.04702
G1 X20.495 Y99.994 E18.44813
G1 X20.494 Y99.133 E18.47677
G1 X20.503 Y98.684 E18.4917
G1 X20.607 Y96.133 E18.57662
G1 X20.641 Y93.609 E18.66058
G1 X20.603 Y91.108 E18.74377
G1 X20.492 Y88.542 E18.8292
G1 X20.399 Y87.117 E18.87669
G1 X20.311 Y85.911 E18.91691
G1 X20.294 Y85.629 E18.92631
G1 X20.282 Y85.374 E18.9348
G1 X20.271 Y85.026 E18.94638
G1 X20.137 Y76.307 E19.23641
G1 X20.135 Y74.567 E19.29428
G1 X20.096 Y71.936 E19.3818
G1 X20.059 Y70.933 E19.41518
G1 X20.053 Y70.694 E19.42313
G1 X19.801 Y53.978 E19.97917
G1 X19.801 Y53.159 E20.00641
G1 X19.842 Y52.222 E20.03761
G1 X19.964 Y51.292 E20.0688
G1 X20.163 Y50.375 E20.10001
G1 X20.441 Y49.479 E20.13122
G1 X20.793 Y48.61 E20.1624
G1 X21.219 Y47.774 E20.19361
G1 X21.713 Y46.978 E20.22477
G1 X22.275 Y46.226 E20.25599
G1 X22.898 Y45.525 E20.28718
G1 X23.578 Y44.88 E20.31836
G1 X24.311 Y44.295 E20.34955
G1 X25.091 Y43.774 E20.38075
G0 F6000 X25.473 Y44.012
G1 F1200 X26.288 Y43.585 E20.41135
G1 X27.138 Y43.229 E20.442
G1 X28.014 Y42.949 E20.47259
G1 X28.912 Y42.746 E20.50321
G1 X29.825 Y42.621 E20.53386
G1 X30.41 Y42.583 E20.55336
G1 X30.708 Y42.572 E20.56327
G1 X30.939 Y42.566 E20.57096
G1 X184.611 Y40.245 E25.68269
G1 X185.466 Y40.244 E25.71113
G1 X186.29 Y40.276 E25.73856
G1 X186.431 Y40.287 E25.74326
G1 X187.004 Y40.347 E25.76242
G1 X187.35 Y40.393 E25.77403
G1 X188.256 Y40.554 E25.80464
G1 X189.146 Y40.793 E25.83529
G1 X189.702 Y40.986 E25.85487
G1 X190.178 Y41.166 E25.87179
G1 X191.024 Y41.529 E25.90241
G1 X191.836 Y41.964 E25.93305
G1 X192.666 Y42.51 E25.96609
G1 X193.103 Y42.828 E25.98407
G1 X193.823 Y43.402 E26.01469
G1 X194.491 Y44.035 E26.0453
G1 X195.072 Y44.69 E26.07442
G1 X195.314 Y44.986 E26.08714
G1 X195.577 Y45.319 E26.10125
G1 X196.105 Y46.073 E26.13187
G1 X196.567 Y46.87 E26.16251
G1 X196.825 Y47.401 E26.18214
G1 X197.053 Y47.904 E26.20051
G1 X197.397 Y48.758 E26.23113
G1 X197.665 Y49.639 E26.26176
G1 X197.86 Y50.568 E26.29333
G1 X197.914 Y50.898 E26.30446
G1 X197.956 Y51.18 E26.31394
G1 X197.982 Y51.371 E26.32035
G1 X198.067 Y52.295 E26.35121
G1 X198.087 Y52.764 E26.36683
G1 X198.095 Y53.076 E26.37721
G1 X199.769 Y164.146 E30.07183
G1 X199.769 Y164.839 E30.09488
G1 X199.735 Y165.691 E30.12324
G1 X199.725 Y165.815 E30.12738
G1 X199.668 Y166.349 E30.14524
G1 X199.618 Y166.728 E30.15795
G1 X199.458 Y167.635 E30.18859
G1 X199.22 Y168.524 E30.21919
G1 X199.028 Y169.08 E30.23876
G1 X198.904 Y169.409 E30.25045
G1 X198.779 Y169.726 E30.26179
G1 X198.726 Y169.854 E30.26639
G1 X198.337 Y170.689 E30.29703
G1 X197.877 Y171.486 E30.32764
G1 X197.536 Y171.991 E30.34791
G1 X197.228 Y172.419 E30.36544
G1 X196.752 Y173.031 E30.39123
G1 X196.133 Y173.712 E30.42184
G1 X195.325 Y174.446 E30.45815
G1 X195.082 Y174.645 E30.46859
G1 X194.829 Y174.846 E30.47934
G1 X194.686 Y174.956 E30.48534
G1 X193.933 Y175.485 E30.51595
G1 X193.136 Y175.947 E30.54659
G1 X192.601 Y176.208 E30.56639
G1 X192.182 Y176.398 E30.58169
G1 X191.86 Y176.537 E30.59336
G1 X190.997 Y176.857 E30.62397
G1 X190.109 Y177.101 E30.6546
G1 X189.462 Y177.228 E30.67653
G1 X189.029 Y177.299 E30.69112
G1 X188.677 Y177.351 E30.70296
G1 X188.569 Y177.365 E30.70658
G1 X187.69 Y177.442 E30.73593
G1 X187.362 Y177.457 E30.74685
G1 X187.038 Y177.467 E30.75763
G1 X33.25 Y179.788 E35.87322
G1 X32.565 Y179.789 E35.896
G1 X31.646 Y179.75 E35.9266
G1 X30.733 Y179.632 E35.95722
G1 X29.833 Y179.435 E35.98786
G1 X28.954 Y179.161 E36.01848
G1 X28.103 Y178.811 E36.04909
G1 X27.285 Y178.389 E36.0797
G1 X26.506 Y177.897 E36.11035
G1 X25.773 Y177.34 E36.14097
G1 X25.092 Y176.721 E36.17157
G1 X24.466 Y176.046 E36.20219
G1 X23.902 Y175.318 E36.23282
G1 X23.403 Y174.545 E36.26342
G1 X22.972 Y173.731 E36.29406
G1 X22.614 Y172.883 E36.32467
G1 X22.331 Y172.007 E36.35529
G1 X22.125 Y171.109 E36.38594
G1 X21.998 Y170.197 E36.41656
G1 X21.96 Y169.647 E36.4349
G1 X21.946 Y169.323 E36.44569
G1 X21.937 Y169.025 E36.4556
G1 X21.756 Y156.971 E36.85656
G1 X21.756 Y156.277 E36.87965
G1 X21.765 Y155.845 E36.89402
G1 X21.869 Y153.3 E36.97874
G1 X21.903 Y150.753 E37.06346
G1 X21.865 Y148.23 E37.14738
G1 X21.755 Y145.689 E37.23198
G1 X21.66 Y144.235 E37.28044
G1 X21.572 Y143.026 E37.32076
G1 X21.555 Y142.739 E37.33032
G1 X21.541 Y142.432 E37.34054
G1 X21.531 Y142.109 E37.35129
G1 X20.894 Y99.828 E38.75772
G1 X20.894 Y99.133 E38.78084
G1 X20.903 Y98.701 E38.79521
G1 X21.007 Y96.156 E38.87992
G1 X21.041 Y93.609 E38.96465
G1 X21.003 Y91.086 E39.04857
G1 X20.893 Y88.545 E39.13316
G1 X20.798 Y87.091 E39.18163
G1 X20.71 Y85.882 E39.22195
G1 X20.694 Y85.61 E39.23101
G1 X20.682 Y85.355 E39.2395
G1 X20.671 Y85.02 E39.25065
G1 X20.536 Y76.144 E39.5459
G1 X20.535 Y74.561 E39.59855
G1 X20.496 Y71.916 E39.68653
G1 X20.459 Y70.919 E39.71971
G1 X20.453 Y70.688 E39.7274
G1 X20.201 Y53.972 E40.28344
G1 X20.201 Y53.159 E40.31048
G1 X20.242 Y52.24 E40.34108
G1 X20.364 Y51.327 E40.37171
G1 X20.563 Y50.428 E40.40234
G1 X20.84 Y49.55 E40.43296
G1 X21.193 Y48.7 E40.46357
G1 X21.617 Y47.883 E40.49419
G1 X22.111 Y47.106 E40.52481
G1 X22.671 Y46.375 E40.55544
G1 X23.291 Y45.695 E40.58604
G1 X23.969 Y45.071 E40.61669
G1 X24.698 Y44.509 E40.64731
G1 X25.473 Y44.012 E40.67793
G0 F6000 X25.854 Y44.256
G1 F1200 X26.662 Y43.853 E40.70796
G1 X27.503 Y43.524 E40.738
G1 X28.37 Y43.27 E40.76804
G1 X29.255 Y43.094 E40.79806
G1 X30.425 Y42.983 E40.83714
G1 X30.945 Y42.966 E40.85445
G1 X184.771 Y40.644 E45.97131
G1 X185.466 Y40.644 E45.99442
G1 X186.259 Y40.675 E46.02082
G1 X186.4 Y40.686 E46.02552
G1 X186.951 Y40.744 E46.04395
G1 X187.297 Y40.79 E46.05556
G1 X188.186 Y40.948 E46.08559
G1 X189.058 Y41.185 E46.11564
G1 X189.561 Y41.36 E46.13336
G1 X190.037 Y41.54 E46.15028
G1 X190.867 Y41.897 E46.18033
G1 X191.662 Y42.325 E46.21037
G1 X192.431 Y42.834 E46.24104
G1 X192.868 Y43.152 E46.25901
G1 X193.574 Y43.715 E46.28905
G1 X194.227 Y44.338 E46.31906
G1 X194.763 Y44.943 E46.34595
G1 X195.005 Y45.239 E46.35866
G1 X195.259 Y45.563 E46.37236
G1 X195.777 Y46.303 E46.4024
G1 X196.228 Y47.085 E46.43243
G1 X196.461 Y47.566 E46.4502
G1 X196.689 Y48.069 E46.46857
G1 X197.025 Y48.907 E46.4986
G1 X197.286 Y49.772 E46.52865
G1 X197.465 Y50.633 E46.5579
G1 X197.519 Y50.963 E46.56902
G1 X197.56 Y51.234 E46.57814
G1 X197.586 Y51.425 E46.58455
G1 X197.667 Y52.314 E46.61424
G1 X197.687 Y52.775 E46.62959
G1 X197.695 Y53.082 E46.6398
G1 X199.369 Y164.146 E50.33423
G1 X199.369 Y164.839 E50.35727
G1 X199.336 Y165.659 E50.38457
G1 X199.326 Y165.783 E50.38871
G1 X199.271 Y166.297 E50.4059
G1 X199.221 Y166.676 E50.41862
G1 X199.064 Y167.565 E50.44864
G1 X198.828 Y168.437 E50.47869
G1 X198.654 Y168.939 E50.49636
G1 X198.53 Y169.268 E50.50805
G1 X198.409 Y169.573 E50.51897
G1 X198.356 Y169.701 E50.52357
G1 X197.974 Y170.519 E50.5536
G1 X197.521 Y171.301 E50.58366
G1 X197.211 Y171.757 E50.602
G1 X196.903 Y172.185 E50.61954
G1 X196.445 Y172.775 E50.64438
G1 X195.837 Y173.442 E50.6744
G1 X195.072 Y174.136 E50.70875
G1 X194.829 Y174.335 E50.7192
G1 X194.585 Y174.529 E50.72957
G1 X194.442 Y174.639 E50.73557
G1 X193.703 Y175.157 E50.76558
G1 X192.92 Y175.608 E50.79564
G1 X192.435 Y175.844 E50.81358
G1 X192.016 Y176.034 E50.82888
G1 X191.705 Y176.169 E50.84015
G1 X190.858 Y176.482 E50.87019
G1 X189.987 Y176.719 E50.90021
G1 X189.397 Y176.834 E50.9202
G1 X188.964 Y176.905 E50.9348
G1 X188.517 Y176.968 E50.94981
G1 X187.672 Y177.042 E50.97802
G1 X187.344 Y177.057 E50.98894
G1 X187.032 Y177.067 E50.99933
G1 X33.25 Y179.388 E56.11472
G1 X32.565 Y179.389 E56.1375
G1 X31.663 Y179.35 E56.16753
G1 X30.767 Y179.232 E56.19759
G1 X29.886 Y179.035 E56.22762
G1 X29.025 Y178.761 E56.25767
G1 X28.193 Y178.411 E56.28769
G1 X27.394 Y177.99 E56.31773
G1 X26.636 Y177.499 E56.34777
G1 X25.924 Y176.944 E56.37779
G1 X25.264 Y176.327 E56.40784
G1 X24.661 Y175.655 E56.43787
G1 X24.12 Y174.932 E56.46791
G1 X23.645 Y174.163 E56.49797
G1 X23.24 Y173.356 E56.528
G1 X22.908 Y172.516 E56.55804
G1 X22.651 Y171.65 E56.58809
G1 X22.473 Y170.765 E56.61811
G1 X22.36 Y169.629 E56.65608
G1 X22.346 Y169.305 E56.66687
G1 X22.337 Y169.019 E56.67638
G1 X22.156 Y156.971 E57.07715
G1 X22.156 Y156.277 E57.10023
G1 X22.164 Y155.861 E57.11407
G1 X22.269 Y153.285 E57.19982
G1 X22.303 Y150.753 E57.28404
G1 X22.265 Y148.207 E57.36873
G1 X22.153 Y145.644 E57.45406
G1 X22.065 Y144.288 E57.49925
G1 X21.971 Y142.997 E57.54231
G1 X21.955 Y142.721 E57.5515
G1 X21.941 Y142.414 E57.56172
G1 X21.931 Y142.103 E57.57207
G1 X21.294 Y99.828 E58.9783
G1 X21.294 Y99.133 E59.00142
G1 X21.302 Y98.717 E59.01526
G1 X21.407 Y96.141 E59.10101
G1 X21.441 Y93.609 E59.18523
G1 X21.403 Y91.063 E59.26992
G1 X21.291 Y88.5 E59.35525
G1 X21.203 Y87.144 E59.40044
G1 X21.109 Y85.853 E59.44349
G1 X21.093 Y85.591 E59.45222
G1 X21.081 Y85.336 E59.46072
G1 X21.071 Y85.014 E59.47143
G1 X20.936 Y76.144 E59.76648
G1 X20.935 Y74.555 E59.81933
G1 X20.896 Y71.895 E59.90781
G1 X20.859 Y70.904 E59.9408
G1 X20.853 Y70.682 E59.94818
G1 X20.601 Y53.966 E60.50422
G1 X20.601 Y53.16 E60.53103
G1 X20.642 Y52.258 E60.56106
G1 X20.763 Y51.363 E60.5911
G1 X20.963 Y50.482 E60.62115
G1 X21.24 Y49.622 E60.6512
G1 X21.592 Y48.791 E60.68122
G1 X22.016 Y47.993 E60.71127
G1 X22.509 Y47.237 E60.74129
G1 X23.067 Y46.526 E60.77135
G1 X23.685 Y45.868 E60.80138
G1 X24.359 Y45.267 E60.83141
G1 X25.084 Y44.729 E60.86144
G1 X25.854 Y44.256 E60.8915
G1 F2700 E55.8915
;MESH:Body1.stl
G0 F6000 X116.777 Y65.407
G0 X118.438 Y65.42
G0 X118.509 Y65.81
G0 X127.145 Y67.819
G0 X127.174 Y65.289
G0 X139.867 Y65.096
G0 X140.019 Y70.814
G0 X146.264 Y72.266
G0 X146.414 Y77.695
G0 X159.107 Y77.502
G0 X159.139 Y75.261
G0 X165.463 Y76.733
G0 X164.028 Y76.755
G0 X164.228 Y78.678
;TYPE:WALL-INNER
G1 F2700 E60.8915
G1 F1200 X179.228 Y78.451 E61.39045
G1 X179.426 Y78.449 E61.39704
G1 X179.424 Y78.251 E61.4013
G1 X179.197 Y63.252 E61.90022
G1 X178.648 Y63.259 E61.91848
G1 X178.484 Y62.775 E61.93548
G1 X177.93 Y61.926 E61.9692
G1 X177.838 Y61.833 E61.97355
G1 X177.179 Y61.23 E62.00326
G1 X177.066 Y61.163 E62.00763
G1 X176.301 Y60.755 E62.03647
G1 X176.206 Y60.718 E62.03986
G1 X175.3 Y60.499 E62.07086
G1 X175.176 Y60.488 E62.075
G1 X174.278 Y60.499 E62.10487
G1 X174.155 Y60.518 E62.10901
G1 X173.26 Y60.763 E62.13987
G1 X173.168 Y60.803 E62.14321
G1 X172.408 Y61.236 E62.1723
G1 X172.299 Y61.309 E62.17666
G1 X171.664 Y61.926 E62.20611
G1 X171.575 Y62.022 E62.21047
G1 X171.11 Y62.78 E62.24004
G1 X171.045 Y62.894 E62.24441
G1 X170.897 Y63.375 E62.26115
G1 X163.998 Y63.48 E62.49063
G1 X164.228 Y78.678 E62.99618
G0 F6000 X164.622 Y78.272
;TYPE:WALL-OUTER
G1 F1200 X179.02 Y78.055 E63.47511
G1 X178.803 Y63.657 E63.95405
G1 X178.362 Y63.663 E63.96872
G1 X178.121 Y62.951 E63.99372
G1 X177.618 Y62.179 E64.02436
G1 X177.561 Y62.122 E64.02704
G1 X176.939 Y61.553 E64.05508
G1 X176.87 Y61.512 E64.05775
G1 X176.133 Y61.119 E64.08553
G1 X176.085 Y61.1 E64.08725
G1 X175.234 Y60.895 E64.11636
G1 X175.16 Y60.888 E64.11884
G1 X174.311 Y60.899 E64.14708
G1 X174.238 Y60.91 E64.14953
G1 X173.393 Y61.141 E64.17867
G1 X173.347 Y61.161 E64.18034
G1 X172.619 Y61.576 E64.20821
G1 X172.552 Y61.621 E64.21089
G1 X171.95 Y62.206 E64.23881
G1 X171.895 Y62.265 E64.24149
G1 X171.454 Y62.984 E64.26955
G1 X171.414 Y63.054 E64.27223
G1 X171.194 Y63.771 E64.29717
G1 X164.404 Y63.874 E64.52304
G1 X164.622 Y78.272 E65.00197
G1 F2700 E60.00197
G0 F6000 X164.423 Y78.273
G0 X164.028 Y76.755
G0 X165.463 Y76.733
G0 X155.299 Y83.866
G0 X146.509 Y84.049
G0 X146.538 Y90.015
G0 X127.558 Y103.337
G0 X125.368 Y103.42
G0 X125.328 Y104.901
G0 X122.646 Y106.784
G0 X122.541 Y103.693
G0 X117.19 Y110.045
G0 X116.367 Y110.057
G0 X116.323 Y111.222
G0 X99.818 Y122.807
G0 X89.94 Y123.007
G0 X89.981 Y129.711
G0 X83.811 Y134.042
G0 X83.778 Y135.796
G0 X81.186 Y135.884
G0 X72.077 Y142.278
G0 X61.656 Y142.486
G0 X61.703 Y149.559
G0 X55.463 Y153.94
G0 X56.896 Y153.918
G0 X56.765 Y156.509
;TYPE:WALL-INNER
G1 F2700 E65.00197
G1 F1200 X56.538 Y141.508 E65.50096
G1 X56.536 Y141.31 E65.50755
G1 X56.338 Y141.313 E65.51181
G1 X41.535 Y141.537 E66.00421
G1 X41.337 Y141.54 E66.0108
